; generated by Slic3r 1.3.0-dev on 2018-01-07 at 10:24:36

; Print Config Notes: 
; DMF_3D_0.3mmThin222R25%
; 
; external perimeters extrusion width = 0.60mm (4.82mm^3/s)
; perimeters extrusion width = 0.54mm (5.71mm^3/s)
; infill extrusion width = 0.99mm (11.11mm^3/s)
; solid infill extrusion width = 0.51mm (5.35mm^3/s)
; top infill extrusion width = 0.51mm (5.35mm^3/s)

M190 S90 ; set bed temperature and wait for it to be reached
M104 S250 ; set temperature
G92.1 ; clear offsets
G28 ; home all axes
; Filament gcode

M109 S250 ; set temperature and wait for it to be reached
G21 ; set units to millimeters
G90 ; use absolute coordinates
M82 ; use absolute distances for extrusion
G92 E0
G1 Z0.300 F4500.000
G1 E-0.60000 F900.00000
G92 E0
G1 X58.723 Y59.916 F4500.000
G1 E0.65000 F900.00000
G1 F1920
G1 X61.381 Y57.349 E0.91659
G1 X64.383 Y54.816 E1.20000
G1 X64.704 Y54.562 E1.22953
G1 X67.693 Y52.390 E1.49610
G1 X71.371 Y50.092 E1.80903
G1 X74.633 Y48.357 E2.07560
G1 X78.298 Y46.713 E2.36537
G1 X82.373 Y45.230 E2.67829
G1 X85.925 Y44.211 E2.94486
G1 X89.851 Y43.365 E3.23462
G1 X94.146 Y42.762 E3.54756
G1 X97.832 Y42.504 E3.81414
G1 X101.818 Y42.493 E4.10179
G1 X105.854 Y42.762 E4.39363
G1 X110.149 Y43.365 E4.70657
G1 X114.075 Y44.211 E4.99633
G1 X117.627 Y45.230 E5.26289
G1 X121.702 Y46.713 E5.57581
G1 X125.078 Y48.216 E5.84239
G1 X128.629 Y50.092 E6.13216
G1 X132.307 Y52.390 E6.44509
G1 X135.296 Y54.562 E6.71166
G1 X135.617 Y54.816 E6.74119
G1 X138.618 Y57.349 E7.02456
G1 X141.277 Y59.916 E7.29119
G1 X143.972 Y62.893 E7.58095
G1 X146.643 Y66.311 E7.89388
G1 X148.879 Y69.647 E8.18362
G1 X150.726 Y72.846 E8.45019
G1 X152.628 Y76.745 E8.76313
G1 X154.012 Y80.170 E9.02970
G1 X155.236 Y83.903 E9.31312
G1 X155.352 Y84.295 E9.34265
G1 X156.246 Y87.880 E9.60922
G1 X156.999 Y92.152 E9.92216
G1 X157.385 Y95.826 E10.18872
G1 X157.537 Y99.839 E10.47848
G1 X157.408 Y103.853 E10.76823
G1 X156.954 Y108.167 E11.08117
G1 X156.313 Y111.805 E11.34774
G1 X155.352 Y115.705 E11.63750
G1 X154.012 Y119.830 E11.95044
G1 X152.628 Y123.255 E12.21701
G1 X150.877 Y126.870 E12.50676
G1 X148.709 Y130.626 E12.81969
G1 X146.643 Y133.689 E13.08626
G1 X144.179 Y136.861 E13.37601
G1 X141.277 Y140.084 E13.68896
G1 X138.619 Y142.650 E13.95553
G1 X135.617 Y145.184 E14.23894
G1 X135.296 Y145.438 E14.26847
G1 X132.307 Y147.610 E14.53505
G1 X128.629 Y149.908 E14.84797
G1 X125.078 Y151.784 E15.13774
G1 X121.702 Y153.287 E15.40431
G1 X117.627 Y154.770 E15.71724
G1 X113.763 Y155.866 E16.00700
G1 X110.149 Y156.635 E16.27357
G1 X106.174 Y157.205 E16.56331
G1 X101.847 Y157.507 E16.87626
G1 X97.831 Y157.496 E17.16601
G1 X94.146 Y157.238 E17.43257
G1 X89.851 Y156.635 E17.74552
G1 X85.925 Y155.789 E18.03527
G1 X82.373 Y154.770 E18.30184
G1 X78.298 Y153.287 E18.61477
G1 X74.922 Y151.784 E18.88134
G1 X71.371 Y149.908 E19.17111
G1 X67.693 Y147.610 E19.48403
G1 X64.704 Y145.438 E19.75061
G1 X64.383 Y145.184 E19.78013
G1 X61.381 Y142.650 E20.06356
G1 X58.723 Y140.084 E20.33013
G1 X56.028 Y137.107 E20.61989
G1 X53.357 Y133.689 E20.93283
G1 X51.121 Y130.353 E21.22257
G1 X49.274 Y127.154 E21.48914
G1 X47.372 Y123.255 E21.80207
G1 X45.988 Y119.830 E22.06864
G1 X44.737 Y116.014 E22.35840
G1 X43.754 Y112.120 E22.64816
G1 X43.001 Y107.848 E22.96109
G1 X42.615 Y104.174 E23.22766
G1 X42.463 Y100.161 E23.51742
G1 X42.592 Y96.147 E23.80717
G1 X43.046 Y91.833 E24.12011
G1 X43.754 Y87.880 E24.40986
G1 X44.648 Y84.295 E24.67643
G1 X45.988 Y80.170 E24.98938
G1 X47.503 Y76.451 E25.27912
G1 X49.123 Y73.130 E25.54570
G1 X51.291 Y69.374 E25.85863
G1 X53.357 Y66.311 E26.12520
G1 X55.821 Y63.139 E26.41496
G1 X58.682 Y59.959 E26.72356
G1 X59.095 Y60.301 F4500.000
G1 F1920
G1 X61.753 Y57.735 E26.99015
G1 X64.727 Y55.226 E27.27086
G1 X65.018 Y54.995 E27.29769
G1 X68.008 Y52.823 E27.56427
G1 X71.622 Y50.564 E27.87180
G1 X74.884 Y48.830 E28.13837
G1 X78.515 Y47.203 E28.42544
G1 X82.521 Y45.745 E28.73298
G1 X86.072 Y44.726 E28.99954
G1 X89.962 Y43.889 E29.28661
G1 X94.183 Y43.296 E29.59416
G1 X97.869 Y43.038 E29.86074
G1 X101.818 Y43.029 E30.14569
G1 X105.817 Y43.296 E30.43483
G1 X110.038 Y43.889 E30.74238
G1 X113.928 Y44.726 E31.02944
G1 X117.479 Y45.745 E31.29601
G1 X121.485 Y47.203 E31.60354
G1 X124.860 Y48.705 E31.87012
G1 X128.378 Y50.565 E32.15719
G1 X131.992 Y52.823 E32.46472
G1 X134.982 Y54.995 E32.73130
G1 X135.273 Y55.226 E32.75813
G1 X138.246 Y57.734 E33.03881
G1 X140.905 Y60.302 E33.30544
G1 X143.574 Y63.252 E33.59250
G1 X146.199 Y66.610 E33.90003
G1 X148.415 Y69.914 E34.18708
G1 X150.262 Y73.114 E34.45365
G1 X152.131 Y76.945 E34.76120
G1 X153.515 Y80.371 E35.02777
G1 X154.727 Y84.068 E35.30850
G1 X154.832 Y84.425 E35.33533
G1 X155.726 Y88.010 E35.60190
G1 X156.466 Y92.208 E35.90944
G1 X156.852 Y95.882 E36.17601
G1 X157.001 Y99.858 E36.46307
G1 X156.872 Y103.834 E36.75013
G1 X156.427 Y108.074 E37.05768
G1 X155.726 Y111.990 E37.34473
G1 X154.832 Y115.575 E37.61130
G1 X153.515 Y119.629 E37.91885
G1 X152.131 Y123.055 E38.18542
G1 X150.396 Y126.635 E38.47248
G1 X148.264 Y130.327 E38.78002
G1 X146.199 Y133.390 E39.04659
G1 X143.757 Y136.531 E39.33364
G1 X140.905 Y139.699 E39.64120
G1 X138.247 Y142.265 E39.90777
G1 X135.273 Y144.774 E40.18850
G1 X134.982 Y145.005 E40.21532
G1 X131.992 Y147.177 E40.48189
G1 X128.378 Y149.435 E40.78943
G1 X125.116 Y151.170 E41.05600
G1 X121.485 Y152.797 E41.34307
G1 X117.479 Y154.255 E41.65061
G1 X113.928 Y155.274 E41.91718
G1 X110.038 Y156.111 E42.20424
G1 X105.817 Y156.704 E42.51179
G1 X102.131 Y156.962 E42.77836
G1 X98.153 Y156.971 E43.06541
G1 X93.900 Y156.674 E43.37296
G1 X90.242 Y156.160 E43.63953
G1 X86.348 Y155.342 E43.92658
G1 X82.521 Y154.255 E44.21364
G1 X78.515 Y152.797 E44.52118
G1 X74.884 Y151.170 E44.80825
G1 X71.622 Y149.436 E45.07482
G1 X68.008 Y147.177 E45.38236
G1 X65.018 Y145.005 E45.64893
G1 X64.727 Y144.774 E45.67576
G1 X61.753 Y142.265 E45.95649
G1 X59.095 Y139.699 E46.22306
G1 X56.426 Y136.748 E46.51012
G1 X53.801 Y133.389 E46.81767
G1 X51.736 Y130.326 E47.08423
G1 X49.738 Y126.886 E47.37128
G1 X47.869 Y123.055 E47.67883
G1 X46.485 Y119.629 E47.94540
G1 X45.246 Y115.848 E48.23246
G1 X44.274 Y111.990 E48.51953
G1 X43.534 Y107.792 E48.82707
G1 X43.148 Y104.118 E49.09363
G1 X42.999 Y100.142 E49.38070
G1 X43.128 Y96.166 E49.66775
G1 X43.573 Y91.926 E49.97530
G1 X44.215 Y88.288 E50.24187
G1 X45.168 Y84.425 E50.52892
G1 X46.485 Y80.371 E50.83648
G1 X47.985 Y76.686 E51.12352
G1 X49.604 Y73.365 E51.39010
G1 X51.736 Y69.674 E51.69764
G1 X53.801 Y66.611 E51.96421
G1 X56.243 Y63.469 E52.25128
G1 X59.054 Y60.345 E52.55448
G1 X59.467 Y60.687 F4500.000
G1 F1920
G1 X62.125 Y58.120 E52.82107
G1 X65.072 Y55.637 E53.09909
G1 X65.333 Y55.428 E53.12322
G1 X68.322 Y53.257 E53.38980
G1 X71.874 Y51.037 E53.69194
G1 X75.136 Y49.303 E53.95851
G1 X78.733 Y47.692 E54.24289
G1 X82.668 Y46.260 E54.54503
G1 X86.220 Y45.241 E54.81160
G1 X90.073 Y44.413 E55.09597
G1 X94.220 Y43.830 E55.39812
G1 X98.182 Y43.564 E55.68457
G1 X102.094 Y43.573 E55.96683
G1 X105.780 Y43.830 E56.23340
G1 X109.927 Y44.413 E56.53556
G1 X113.780 Y45.241 E56.81993
G1 X117.332 Y46.260 E57.08650
G1 X121.267 Y47.692 E57.38864
G1 X124.642 Y49.195 E57.65521
G1 X128.126 Y51.037 E57.93959
G1 X131.678 Y53.257 E58.24173
G1 X134.667 Y55.428 E58.50831
G1 X134.928 Y55.637 E58.53244
G1 X137.874 Y58.120 E58.81043
G1 X140.533 Y60.687 E59.07705
G1 X143.335 Y63.799 E59.37919
G1 X145.609 Y66.710 E59.64576
G1 X147.820 Y69.973 E59.93013
G1 X149.914 Y73.600 E60.23228
G1 X151.534 Y76.921 E60.49885
G1 X153.018 Y80.572 E60.78321
G1 X154.313 Y84.555 E61.08537
G1 X155.206 Y88.139 E61.35194
G1 X155.899 Y92.019 E61.63629
G1 X156.320 Y95.938 E61.92066
G1 X156.466 Y100.123 E62.22281
G1 X156.337 Y103.816 E62.48938
G1 X155.934 Y107.736 E62.77375
G1 X155.206 Y111.861 E63.07590
G1 X154.313 Y115.446 E63.34247
G1 X154.218 Y115.766 E63.36659
G1 X153.018 Y119.428 E63.64464
G1 X151.634 Y122.854 E63.91120
G1 X149.799 Y126.618 E64.21336
G1 X147.951 Y129.818 E64.47993
G1 X145.754 Y133.090 E64.76428
G1 X143.176 Y136.390 E65.06643
G1 X140.532 Y139.313 E65.35081
G1 X137.875 Y141.880 E65.61738
G1 X134.928 Y144.364 E65.89541
G1 X134.667 Y144.572 E65.91953
G1 X131.678 Y146.743 E66.18611
G1 X128.126 Y148.963 E66.48825
G1 X124.864 Y150.697 E66.75482
G1 X121.267 Y152.308 E67.03920
G1 X117.332 Y153.740 E67.34134
G1 X113.780 Y154.759 E67.60792
G1 X109.927 Y155.587 E67.89228
G1 X105.780 Y156.170 E68.19444
G1 X102.094 Y156.427 E68.46101
G1 X98.153 Y156.436 E68.74536
G1 X93.975 Y156.144 E69.04752
G1 X90.316 Y155.630 E69.31409
G1 X86.459 Y154.819 E69.59845
G1 X82.668 Y153.740 E69.88281
G1 X78.733 Y152.308 E70.18496
G1 X75.358 Y150.805 E70.45153
G1 X71.874 Y148.963 E70.73590
G1 X68.322 Y146.743 E71.03805
G1 X65.333 Y144.572 E71.30462
G1 X65.072 Y144.363 E71.32875
G1 X62.125 Y141.880 E71.60678
G1 X59.468 Y139.313 E71.87335
G1 X56.824 Y136.390 E72.15772
G1 X54.246 Y133.090 E72.45988
G1 X52.049 Y129.818 E72.74423
G1 X50.201 Y126.618 E73.01080
G1 X48.366 Y122.854 E73.31295
G1 X46.982 Y119.428 E73.57952
G1 X45.783 Y115.766 E73.85755
G1 X45.687 Y115.446 E73.88169
G1 X44.794 Y111.861 E74.14826
G1 X44.066 Y107.736 E74.45041
G1 X43.680 Y104.062 E74.71698
G1 X43.534 Y100.123 E75.00135
G1 X43.663 Y96.184 E75.28571
G1 X44.101 Y92.019 E75.58786
G1 X44.794 Y88.139 E75.87222
G1 X45.687 Y84.555 E76.13879
G1 X46.982 Y80.571 E76.44095
G1 X48.466 Y76.921 E76.72531
G1 X50.086 Y73.600 E76.99188
G1 X52.180 Y69.973 E77.29403
G1 X54.246 Y66.910 E77.56060
G1 X56.665 Y63.799 E77.84497
G1 X59.426 Y60.730 E78.14279
G1 E77.54279 F900.00000
G92 E0
G1 X100.517 Y147.563 F4500.000
G1 E0.65000 F900.00000
G1 F720
G1 X101.002 Y147.764 E0.68789
G1 X101.419 Y148.084 E0.72577
G1 X101.745 Y148.520 E0.76505
G1 X101.936 Y148.981 E0.80109
G1 X102.004 Y149.500 E0.83884
G1 X101.936 Y150.019 E0.87660
G1 X101.736 Y150.502 E0.91435
G1 X101.417 Y150.917 E0.95210
G1 X101.002 Y151.236 E0.98985
G1 X100.519 Y151.436 E1.02760
G1 X100.000 Y151.504 E1.06536
G1 X99.481 Y151.436 E1.10311
G1 X98.998 Y151.236 E1.14086
G1 X98.583 Y150.917 E1.17862
G1 X98.264 Y150.502 E1.21636
G1 X98.064 Y150.019 E1.25411
G1 X97.996 Y149.500 E1.29187
G1 X98.064 Y148.981 E1.32963
G1 X98.264 Y148.498 E1.36738
G1 X98.583 Y148.083 E1.40512
G1 X98.998 Y147.764 E1.44288
G1 X99.481 Y147.564 E1.48063
G1 X99.977 Y147.499 E1.51668
G1 X100.457 Y147.556 E1.55162
G1 X100.517 Y147.563 F4500.000
G1 E0.95162 F900.00000
G92 E0
G1 X66.934 Y135.521 F4500.000
G1 E0.65000 F900.00000
G1 F720
G1 X66.734 Y136.004 E0.68776
G1 X66.416 Y136.419 E0.72550
G1 X66.000 Y136.738 E0.76326
G1 X65.517 Y136.938 E0.80101
G1 X64.998 Y137.006 E0.83877
G1 X64.479 Y136.938 E0.87651
G1 X63.996 Y136.738 E0.91427
G1 X63.581 Y136.419 E0.95202
G1 X63.262 Y136.004 E0.98977
G1 X63.062 Y135.521 E1.02753
G1 X62.994 Y135.002 E1.06528
G1 X63.062 Y134.483 E1.10303
G1 X63.262 Y134.000 E1.14078
G1 X63.581 Y133.584 E1.17854
G1 X63.996 Y133.266 E1.21629
G1 X64.479 Y133.066 E1.25404
G1 X64.975 Y133.001 E1.29008
G1 X65.515 Y133.065 E1.32936
G1 X66.000 Y133.266 E1.36724
G1 X66.416 Y133.584 E1.40500
G1 X66.734 Y134.000 E1.44275
G1 X66.934 Y134.483 E1.48050
G1 X67.003 Y135.002 E1.51826
G1 X66.942 Y135.461 E1.55168
G1 X66.934 Y135.521 F4500.000
G1 E0.95168 F900.00000
G92 E0
G1 X51.502 Y101.736 F4500.000
G1 E0.65000 F900.00000
G1 F720
G1 X51.019 Y101.936 E0.68775
G1 X50.500 Y102.004 E0.72551
G1 X49.981 Y101.936 E0.76326
G1 X49.520 Y101.745 E0.79930
G1 X49.082 Y101.418 E0.83871
G1 X48.755 Y100.980 E0.87812
G1 X48.564 Y100.519 E0.91417
G1 X48.496 Y100.000 E0.95192
G1 X48.564 Y99.481 E0.98967
G1 X48.764 Y98.998 E1.02742
G1 X49.083 Y98.583 E1.06518
G1 X49.498 Y98.264 E1.10293
G1 X49.981 Y98.064 E1.14068
G1 X50.477 Y97.999 E1.17672
G1 X51.017 Y98.063 E1.21600
G1 X51.502 Y98.264 E1.25389
G1 X51.919 Y98.584 E1.29177
G1 X52.245 Y99.020 E1.33105
G1 X52.436 Y99.481 E1.36709
G1 X52.504 Y100.000 E1.40484
G1 X52.436 Y100.519 E1.44259
G1 X52.236 Y101.002 E1.48035
G1 X51.917 Y101.417 E1.51810
G1 X51.550 Y101.699 E1.55152
G1 X51.502 Y101.736 F4500.000
G1 E0.95152 F900.00000
G92 E0
G1 X64.479 Y66.934 F4500.000
G1 E0.65000 F900.00000
G1 F720
G1 X63.996 Y66.734 E0.68776
G1 X63.579 Y66.414 E0.72564
G1 X63.253 Y65.979 E0.76492
G1 X63.062 Y65.517 E0.80096
G1 X62.994 Y64.998 E0.83872
G1 X63.062 Y64.479 E0.87646
G1 X63.262 Y63.996 E0.91422
G1 X63.581 Y63.581 E0.95197
G1 X63.996 Y63.262 E0.98972
G1 X64.479 Y63.062 E1.02748
G1 X64.975 Y62.997 E1.06352
G1 X65.515 Y63.061 E1.10280
G1 X66.000 Y63.262 E1.14068
G1 X66.416 Y63.581 E1.17844
G1 X66.734 Y63.996 E1.21619
G1 X66.934 Y64.479 E1.25394
G1 X67.003 Y64.998 E1.29169
G1 X66.934 Y65.517 E1.32945
G1 X66.734 Y66.000 E1.36719
G1 X66.416 Y66.416 E1.40495
G1 X66.000 Y66.734 E1.44270
G1 X65.517 Y66.934 E1.48045
G1 X64.998 Y67.003 E1.51821
G1 X64.539 Y66.942 E1.55163
G1 X64.479 Y66.934 F4500.000
G1 E0.95163 F900.00000
G92 E0
G1 X61.648 Y83.257 F4500.000
G1 E0.65000 F900.00000
G1 F1920
G1 X63.061 Y80.359 E0.88259
G1 X64.521 Y77.830 E1.09333
G1 X66.198 Y75.352 E1.30917
G1 X67.952 Y73.108 E1.51464
G1 X69.906 Y70.938 E1.72533
G1 X72.006 Y68.910 E1.93601
G1 X74.243 Y67.033 E2.14670
G1 X76.526 Y65.374 E2.35032
G1 X79.081 Y63.769 E2.56798
G1 X81.660 Y62.398 E2.77874
G1 X83.312 Y61.663 E2.90919
G1 X82.314 Y61.395 E2.98371
G1 X81.814 Y61.106 E3.02541
G1 X81.405 Y60.697 E3.06712
G1 X81.116 Y60.197 E3.10883
G1 X80.966 Y59.638 E3.15055
G1 X80.966 Y59.060 E3.19224
G1 X81.116 Y58.502 E3.23395
G1 X81.405 Y58.001 E3.27567
G1 X81.814 Y57.592 E3.31738
G1 X82.314 Y57.303 E3.35908
G1 X82.873 Y57.154 E3.40079
G1 X83.451 Y57.154 E3.44251
G1 X84.009 Y57.303 E3.48421
G1 X84.512 Y57.594 E3.52611
G1 X84.925 Y58.011 E3.56845
G1 X85.208 Y58.502 E3.60931
G1 X85.358 Y59.063 E3.65122
G1 X85.354 Y59.650 E3.69355
G1 X85.208 Y60.197 E3.73442
G1 X84.701 Y61.074 E3.80754
G1 X87.072 Y60.211 E3.98956
G1 X89.879 Y59.407 E4.20025
G1 X92.735 Y58.799 E4.41094
G1 X95.555 Y58.403 E4.61641
G1 X98.539 Y58.189 E4.83225
G1 X101.460 Y58.189 E5.04298
G1 X104.373 Y58.393 E5.25367
G1 X107.265 Y58.799 E5.46436
G1 X109.990 Y59.379 E5.66534
G1 X112.927 Y60.211 E5.88561
G1 X115.299 Y61.074 E6.06774
G1 X114.792 Y60.197 E6.14085
G1 X114.643 Y59.638 E6.18256
G1 X114.643 Y59.060 E6.22427
G1 X114.792 Y58.502 E6.26598
G1 X115.081 Y58.001 E6.30769
G1 X115.490 Y57.592 E6.34940
G1 X115.991 Y57.303 E6.39111
G1 X116.549 Y57.154 E6.43281
G1 X117.127 Y57.154 E6.47453
G1 X117.686 Y57.303 E6.51624
G1 X118.186 Y57.592 E6.55794
G1 X118.595 Y58.001 E6.59964
G1 X118.884 Y58.502 E6.64136
G1 X119.034 Y59.060 E6.68308
G1 X119.034 Y59.638 E6.72477
G1 X118.884 Y60.197 E6.76648
G1 X118.595 Y60.697 E6.80820
G1 X118.186 Y61.106 E6.84990
G1 X117.696 Y61.389 E6.89077
G1 X116.693 Y61.665 E6.96578
G1 X118.340 Y62.398 E7.09582
G1 X120.918 Y63.769 E7.30651
G1 X123.394 Y65.316 E7.51720
G1 X125.757 Y67.033 E7.72788
G1 X127.994 Y68.910 E7.93857
G1 X130.094 Y70.938 E8.14925
G1 X132.048 Y73.108 E8.35994
G1 X133.847 Y75.410 E8.57068
G1 X135.515 Y77.893 E8.78652
G1 X136.939 Y80.359 E8.99199
G1 X138.352 Y83.257 E9.22458
G1 X138.605 Y82.314 E9.29496
G1 X138.894 Y81.814 E9.33666
G1 X139.303 Y81.405 E9.37836
G1 X139.803 Y81.116 E9.42008
G1 X140.362 Y80.966 E9.46180
G1 X140.940 Y80.966 E9.50349
G1 X141.498 Y81.116 E9.54520
G1 X141.999 Y81.405 E9.58692
G1 X142.408 Y81.814 E9.62862
G1 X142.697 Y82.314 E9.67032
G1 X142.846 Y82.873 E9.71204
G1 X142.846 Y83.451 E9.75376
G1 X142.697 Y84.009 E9.79546
G1 X142.408 Y84.510 E9.83716
G1 X141.999 Y84.919 E9.87888
G1 X141.498 Y85.208 E9.92059
G1 X140.940 Y85.357 E9.96229
G1 X140.362 Y85.357 E10.00400
G1 X139.803 Y85.208 E10.04571
G1 X139.214 Y84.868 E10.09479
G1 X139.041 Y85.018 E10.11133
G1 X139.313 Y85.691 E10.16371
G1 X140.215 Y88.468 E10.37440
G1 X140.922 Y91.302 E10.58513
G1 X141.437 Y94.249 E10.80097
G1 X141.734 Y97.082 E11.00644
G1 X141.836 Y100.000 E11.21713
G1 X141.734 Y102.918 E11.42781
G1 X141.429 Y105.822 E11.63850
G1 X140.922 Y108.698 E11.84919
G1 X140.215 Y111.532 E12.05987
G1 X139.313 Y114.309 E12.27055
G1 X139.041 Y114.982 E12.32293
G1 X139.214 Y115.132 E12.33947
G1 X139.803 Y114.792 E12.38855
G1 X140.362 Y114.643 E12.43026
G1 X140.940 Y114.643 E12.47197
G1 X141.498 Y114.792 E12.51368
