; generated by Slic3r 1.3.0-dev on 2018-01-07 at 16:52:42

; Print Config Notes: 
; DMF_3D_0.3mmThin222R25%
; 
; external perimeters extrusion width = 0.60mm (4.82mm^3/s)
; perimeters extrusion width = 0.54mm (5.71mm^3/s)
; infill extrusion width = 0.99mm (11.11mm^3/s)
; solid infill extrusion width = 0.51mm (5.35mm^3/s)
; top infill extrusion width = 0.51mm (5.35mm^3/s)

M190 S90 ; set bed temperature and wait for it to be reached
M104 S250 ; set temperature
G92.1 ; clear offsets
G28 ; home all axes
; Filament gcode

M109 S250 ; set temperature and wait for it to be reached
G21 ; set units to millimeters
G90 ; use absolute coordinates
M82 ; use absolute distances for extrusion
G92 E0
G1 Z0.300 F4500.000
G1 E-0.60000 F900.00000
G92 E0
G1 X61.624 Y62.717 F4500.000
G1 E0.65000 F900.00000
G1 F1920
G1 X64.318 Y60.131 E0.91946
G1 X66.933 Y57.937 E1.16572
G1 X69.948 Y55.733 E1.43516
G1 X73.387 Y53.584 E1.72779
G1 X76.401 Y51.981 E1.97405
G1 X79.808 Y50.452 E2.24348
G1 X83.313 Y49.164 E2.51294
G1 X87.212 Y48.046 E2.80558
G1 X90.867 Y47.281 E3.07502
G1 X94.247 Y46.806 E3.32128
G1 X98.293 Y46.523 E3.61391
G1 X102.028 Y46.534 E3.88336
G1 X105.433 Y46.772 E4.12962
G1 X109.449 Y47.337 E4.42224
G1 X113.100 Y48.124 E4.69170
G1 X116.687 Y49.164 E4.96114
G1 X119.894 Y50.332 E5.20740
G1 X123.599 Y51.981 E5.50003
G1 X126.613 Y53.584 E5.74629
G1 X129.786 Y55.553 E6.01574
G1 X133.067 Y57.937 E6.30836
G1 X135.682 Y60.131 E6.55462
G1 X138.376 Y62.717 E6.82408
G1 X141.090 Y65.731 E7.11671
G1 X143.191 Y68.421 E7.36297
G1 X145.289 Y71.511 E7.63241
G1 X147.317 Y75.023 E7.92504
G1 X148.813 Y78.091 E8.17131
G1 X150.222 Y81.549 E8.44075
G1 X151.476 Y85.407 E8.73339
G1 X152.301 Y88.719 E8.97965
G1 X152.961 Y92.394 E9.24909
G1 X153.363 Y96.107 E9.51854
G1 X153.504 Y100.161 E9.81117
G1 X153.385 Y103.572 E10.05743
G1 X153.006 Y107.287 E10.32688
G1 X152.301 Y111.281 E10.61951
G1 X151.476 Y114.593 E10.86577
G1 X150.491 Y117.661 E11.09828
G1 X150.222 Y118.451 E11.15841
G1 X148.944 Y121.615 E11.40467
G1 X147.317 Y124.977 E11.67412
G1 X145.289 Y128.489 E11.96676
G1 X143.380 Y131.319 E12.21302
G1 X141.090 Y134.269 E12.48245
G1 X138.376 Y137.283 E12.77508
G1 X135.682 Y139.869 E13.04454
G1 X133.067 Y142.063 E13.29080
G1 X130.052 Y144.267 E13.56024
G1 X126.613 Y146.416 E13.85287
G1 X123.310 Y148.160 E14.12231
G1 X120.192 Y149.548 E14.36857
G1 X116.687 Y150.836 E14.63803
G1 X112.788 Y151.954 E14.93066
G1 X109.449 Y152.663 E15.17692
G1 X105.753 Y153.194 E15.44636
G1 X101.707 Y153.477 E15.73899
G1 X98.293 Y153.477 E15.98525
G1 X94.567 Y153.228 E16.25470
G1 X90.551 Y152.663 E16.54733
G1 X86.900 Y151.876 E16.81678
G1 X83.619 Y150.935 E17.06304
G1 X80.106 Y149.668 E17.33249
G1 X76.401 Y148.019 E17.62511
G1 X73.387 Y146.416 E17.87138
G1 X70.214 Y144.447 E18.14082
G1 X66.933 Y142.063 E18.43345
G1 X64.318 Y139.869 E18.67971
G1 X61.624 Y137.283 E18.94916
G1 X58.910 Y134.269 E19.24180
G1 X56.809 Y131.579 E19.48805
G1 X54.711 Y128.489 E19.75749
G1 X52.834 Y125.261 E20.02695
G1 X51.056 Y121.615 E20.31958
G1 X49.668 Y118.148 E20.58903
G1 X48.613 Y114.902 E20.83528
G1 X47.699 Y111.281 E21.10473
G1 X46.994 Y107.287 E21.39736
G1 X46.637 Y103.893 E21.64362
G1 X46.496 Y100.161 E21.91307
G1 X46.615 Y96.428 E22.18251
G1 X47.039 Y92.394 E22.47515
G1 X47.632 Y89.033 E22.72141
G1 X48.524 Y85.407 E22.99085
G1 X49.778 Y81.549 E23.28349
G1 X51.056 Y78.385 E23.52975
G1 X52.683 Y75.023 E23.79920
G1 X54.711 Y71.511 E24.09183
G1 X56.620 Y68.681 E24.33810
G1 X58.910 Y65.731 E24.60753
G1 X61.582 Y62.760 E24.89584
G1 X61.996 Y63.103 F4500.000
G1 F1920
G1 X64.663 Y60.541 E25.16259
G1 X67.277 Y58.347 E25.40886
G1 X70.262 Y56.166 E25.67560
G1 X73.639 Y54.057 E25.96284
G1 X76.652 Y52.454 E26.20910
G1 X80.026 Y50.941 E26.47584
G1 X83.497 Y49.668 E26.74260
G1 X87.324 Y48.570 E27.02984
G1 X90.662 Y47.861 E27.27610
G1 X94.322 Y47.336 E27.54285
G1 X98.293 Y47.059 E27.83009
G1 X101.707 Y47.059 E28.07635
G1 X105.395 Y47.307 E28.34310
G1 X109.338 Y47.861 E28.63034
G1 X112.952 Y48.639 E28.89709
G1 X116.233 Y49.580 E29.14335
G1 X119.711 Y50.835 E29.41011
G1 X123.348 Y52.454 E29.69734
G1 X126.607 Y54.199 E29.96410
G1 X129.502 Y56.008 E30.21035
G1 X132.723 Y58.347 E30.49758
G1 X135.337 Y60.541 E30.74385
G1 X138.004 Y63.103 E31.01061
G1 X140.668 Y66.061 E31.29785
G1 X142.769 Y68.751 E31.54411
G1 X144.845 Y71.810 E31.81085
G1 X146.702 Y75.007 E32.07761
G1 X148.447 Y78.585 E32.36485
G1 X149.823 Y82.017 E32.63160
G1 X150.878 Y85.263 E32.87786
G1 X151.782 Y88.848 E33.14461
G1 X152.473 Y92.769 E33.43184
G1 X152.830 Y96.163 E33.67811
G1 X152.969 Y99.858 E33.94486
G1 X152.850 Y103.553 E34.21161
G1 X152.433 Y107.513 E34.49885
G1 X151.841 Y110.874 E34.74511
G1 X150.956 Y114.464 E35.01186
G1 X149.726 Y118.250 E35.29910
G1 X148.447 Y121.415 E35.54536
G1 X146.835 Y124.742 E35.81212
G1 X144.845 Y128.190 E36.09936
G1 X142.936 Y131.019 E36.34562
G1 X140.668 Y133.939 E36.61236
G1 X138.004 Y136.897 E36.89960
G1 X135.337 Y139.459 E37.16636
G1 X132.723 Y141.653 E37.41262
G1 X129.738 Y143.834 E37.67937
G1 X126.361 Y145.943 E37.96660
G1 X123.348 Y147.546 E38.21287
G1 X119.974 Y149.059 E38.47961
G1 X116.503 Y150.332 E38.74637
G1 X112.676 Y151.430 E39.03361
G1 X109.338 Y152.139 E39.27987
G1 X105.678 Y152.664 E39.54662
G1 X101.707 Y152.941 E39.83386
G1 X98.293 Y152.941 E40.08012
G1 X94.605 Y152.693 E40.34687
G1 X90.662 Y152.139 E40.63410
G1 X87.048 Y151.361 E40.90086
G1 X83.767 Y150.420 E41.14712
G1 X80.289 Y149.165 E41.41387
G1 X76.652 Y147.546 E41.70111
G1 X73.639 Y145.943 E41.94737
G1 X70.498 Y143.993 E42.21412
G1 X67.277 Y141.653 E42.50135
G1 X64.451 Y139.268 E42.76811
G1 X61.996 Y136.897 E43.01437
G1 X59.332 Y133.939 E43.30161
G1 X57.064 Y131.019 E43.56835
G1 X55.155 Y128.190 E43.81461
G1 X53.298 Y124.993 E44.08137
G1 X51.553 Y121.415 E44.36861
G1 X50.177 Y117.983 E44.63536
G1 X49.044 Y114.464 E44.90211
G1 X48.218 Y111.152 E45.14837
G1 X47.527 Y107.231 E45.43561
G1 X47.170 Y103.837 E45.68187
G1 X47.031 Y100.142 E45.94863
G1 X47.150 Y96.447 E46.21537
G1 X47.567 Y92.487 E46.50262
G1 X48.159 Y89.126 E46.74888
G1 X49.044 Y85.536 E47.01563
G1 X50.274 Y81.750 E47.30287
G1 X51.668 Y78.326 E47.56962
G1 X53.165 Y75.258 E47.81588
G1 X55.155 Y71.810 E48.10313
G1 X57.064 Y68.981 E48.34939
G1 X59.332 Y66.061 E48.61612
G1 X61.954 Y63.146 E48.89904
G1 X62.368 Y63.488 F4500.000
G1 F1920
G1 X65.007 Y60.952 E49.16310
G1 X67.622 Y58.758 E49.40936
G1 X70.577 Y56.600 E49.67341
G1 X73.890 Y54.530 E49.95526
G1 X77.126 Y52.819 E50.21931
G1 X80.244 Y51.431 E50.46557
G1 X83.680 Y50.171 E50.72963
G1 X87.435 Y49.094 E51.01148
G1 X90.774 Y48.385 E51.25774
G1 X94.397 Y47.867 E51.52179
G1 X98.293 Y47.594 E51.80364
G1 X101.953 Y47.603 E52.06770
G1 X105.358 Y47.841 E52.31396
G1 X109.226 Y48.385 E52.59580
G1 X112.805 Y49.154 E52.85986
G1 X116.085 Y50.095 E53.10612
G1 X119.528 Y51.338 E53.37018
G1 X123.096 Y52.927 E53.65202
G1 X126.324 Y54.653 E53.91608
G1 X129.218 Y56.462 E54.16234
G1 X132.378 Y58.758 E54.44418
G1 X134.993 Y60.952 E54.69044
G1 X137.632 Y63.488 E54.95450
G1 X140.246 Y66.391 E55.23635
G1 X142.347 Y69.081 E55.48261
G1 X144.401 Y72.110 E55.74666
G1 X146.238 Y75.275 E56.01072
G1 X147.951 Y78.786 E56.29257
G1 X149.314 Y82.183 E56.55662
G1 X150.368 Y85.429 E56.80288
G1 X151.262 Y88.978 E57.06694
G1 X151.940 Y92.825 E57.34878
G1 X152.297 Y96.219 E57.59504
G1 X152.433 Y99.877 E57.85910
G1 X152.314 Y103.534 E58.12315
G1 X151.906 Y107.420 E58.40500
G1 X151.313 Y110.781 E58.65127
G1 X150.436 Y114.334 E58.91532
G1 X149.229 Y118.049 E59.19717
G1 X147.951 Y121.214 E59.44343
G1 X146.354 Y124.507 E59.70749
G1 X144.401 Y127.890 E59.98934
G1 X142.492 Y130.720 E60.23560
G1 X140.246 Y133.609 E60.49964
G1 X137.632 Y136.512 E60.78149
G1 X134.993 Y139.048 E61.04556
G1 X132.378 Y141.242 E61.29182
G1 X129.423 Y143.400 E61.55587
G1 X126.110 Y145.470 E61.83771
G1 X123.096 Y147.073 E62.08398
G1 X119.756 Y148.569 E62.34802
G1 X116.320 Y149.829 E62.61209
G1 X112.565 Y150.906 E62.89393
G1 X109.226 Y151.615 E63.14020
G1 X105.603 Y152.133 E63.40425
G1 X101.707 Y152.406 E63.68609
G1 X98.293 Y152.406 E63.93235
G1 X94.642 Y152.159 E64.19641
G1 X90.774 Y151.615 E64.47825
G1 X87.195 Y150.846 E64.74231
G1 X83.915 Y149.905 E64.98857
G1 X80.472 Y148.662 E65.25263
G1 X76.904 Y147.073 E65.53447
G1 X73.890 Y145.470 E65.78074
G1 X70.782 Y143.538 E66.04479
G1 X67.622 Y141.242 E66.32663
G1 X64.823 Y138.883 E66.59070
G1 X62.368 Y136.512 E66.83695
G1 X59.754 Y133.609 E67.11881
G1 X57.508 Y130.720 E67.38285
G1 X55.599 Y127.890 E67.62911
G1 X53.762 Y124.725 E67.89317
G1 X52.049 Y121.214 E68.17502
G1 X50.686 Y117.817 E68.43908
G1 X49.564 Y114.334 E68.70313
G1 X48.738 Y111.022 E68.94939
G1 X48.060 Y107.175 E69.23124
G1 X47.703 Y103.781 E69.47750
G1 X47.567 Y100.123 E69.74156
G1 X47.686 Y96.466 E70.00561
G1 X48.094 Y92.580 E70.28746
G1 X48.687 Y89.219 E70.53372
G1 X49.564 Y85.666 E70.79777
G1 X50.771 Y81.951 E71.07962
G1 X52.049 Y78.786 E71.32588
G1 X53.646 Y75.493 E71.58994
G1 X55.599 Y72.110 E71.87179
G1 X57.508 Y69.280 E72.11805
G1 X59.754 Y66.391 E72.38210
G1 X62.327 Y63.531 E72.65962
G1 E72.05962 F900.00000
G92 E0
G1 X100.000 Y109.581 F4500.000
G1 E0.65000 F900.00000
G1 F1920
G1 X114.111 Y138.826 E2.99284
G1 X112.774 Y139.313 E3.09550
G1 X110.000 Y140.108 E3.30367
G1 X107.178 Y140.708 E3.51183
G1 X104.321 Y141.110 E3.72000
G1 X101.768 Y141.288 E3.90461
G1 X102.305 Y141.700 E3.95346
G1 X102.830 Y142.398 E4.01645
G1 X103.145 Y143.157 E4.07576
G1 X103.256 Y144.000 E4.13708
G1 X103.145 Y144.843 E4.19840
G1 X102.820 Y145.628 E4.25972
G1 X102.302 Y146.302 E4.32104
G1 X101.628 Y146.820 E4.38236
G1 X100.843 Y147.145 E4.44369
G1 X100.000 Y147.256 E4.50501
G1 X99.157 Y147.145 E4.56634
G1 X98.372 Y146.820 E4.62766
G1 X97.695 Y146.300 E4.68928
G1 X97.170 Y145.602 E4.75227
G1 X96.855 Y144.843 E4.81157
G1 X96.744 Y144.000 E4.87290
G1 X96.855 Y143.157 E4.93422
G1 X97.180 Y142.372 E4.99554
G1 X97.698 Y141.698 E5.05686
G1 X98.232 Y141.288 E5.10542
G1 X95.679 Y141.110 E5.29002
G1 X92.822 Y140.708 E5.49819
G1 X90.000 Y140.108 E5.70636
G1 X87.226 Y139.313 E5.91453
G1 X85.889 Y138.826 E6.01718
G1 X99.974 Y109.635 E8.35570
G1 E7.75570 F900.00000
G92 E0
G1 X99.975 Y141.288 F4500.000
G1 E0.65000 F900.00000
G1 F720
G1 X100.702 Y141.376 E0.70282
G1 X101.358 Y141.648 E0.75407
G1 X101.921 Y142.081 E0.80532
G1 X102.361 Y142.666 E0.85814
G1 X102.623 Y143.297 E0.90746
G1 X102.716 Y144.000 E0.95860
G1 X102.623 Y144.703 E1.00975
G1 X102.352 Y145.358 E1.06090
G1 X101.920 Y145.920 E1.11204
G1 X101.358 Y146.352 E1.16319
G1 X100.703 Y146.623 E1.21434
G1 X100.000 Y146.716 E1.26549
G1 X99.297 Y146.623 E1.31664
G1 X98.642 Y146.352 E1.36779
G1 X98.079 Y145.919 E1.41904
G1 X97.639 Y145.334 E1.47185
G1 X97.377 Y144.703 E1.52117
G1 X97.284 Y144.000 E1.57232
G1 X97.377 Y143.297 E1.62346
G1 X97.648 Y142.642 E1.67461
G1 X98.080 Y142.080 E1.72576
G1 X98.642 Y141.648 E1.77691
G1 X99.297 Y141.377 E1.82806
G1 X99.915 Y141.296 E1.87304
G1 X99.975 Y141.288 F4500.000
G1 E1.27304 F900.00000
G92 E0
G1 X86.629 Y138.526 F4500.000
G1 E0.65000 F900.00000
G1 F1440
G1 X100.000 Y110.813 E2.87001
G1 X113.371 Y138.526 E5.09002
G1 X112.608 Y138.803 E5.14859
G1 X109.870 Y139.588 E5.35406
G1 X107.085 Y140.180 E5.55953
G1 X104.265 Y140.577 E5.76500
G1 X101.424 Y140.775 E5.97047
G1 X98.576 Y140.775 E6.17594
G1 X95.735 Y140.577 E6.38141
G1 X92.915 Y140.180 E6.58688
G1 X90.130 Y139.588 E6.79234
G1 X87.392 Y138.803 E6.99782
G1 X86.686 Y138.546 E7.05205
G1 X86.261 Y138.371 F4500.000
G1 E6.45205 F900.00000
G92 E0
G1 X82.505 Y137.485 F4500.000
G1 E0.65000 F900.00000
G1 F1920
G1 X79.332 Y135.798 E0.90927
G1 X76.885 Y134.269 E1.11743
G1 X74.551 Y132.573 E1.32560
G1 X72.060 Y130.483 E1.56018
G1 X72.143 Y131.113 E1.60597
G1 X72.032 Y131.955 E1.66729
G1 X71.707 Y132.741 E1.72862
G1 X71.189 Y133.415 E1.78994
G1 X70.515 Y133.932 E1.85126
G1 X69.730 Y134.258 E1.91259
G1 X68.887 Y134.369 E1.97391
G1 X68.045 Y134.258 E2.03523
G1 X67.259 Y133.932 E2.09656
G1 X66.585 Y133.415 E2.15788
G1 X66.068 Y132.741 E2.21919
G1 X65.742 Y131.955 E2.28052
G1 X65.631 Y131.113 E2.34184
G1 X65.742 Y130.270 E2.40317
G1 X66.068 Y129.485 E2.46450
G1 X66.585 Y128.811 E2.52581
G1 X67.259 Y128.293 E2.58713
G1 X68.045 Y127.968 E2.64846
G1 X68.860 Y127.861 E2.70776
G1 X69.575 Y127.948 E2.75976
G1 X68.335 Y126.570 E2.89349
G1 X66.558 Y124.297 E3.10165
G1 X64.945 Y121.905 E3.30982
G1 X63.502 Y119.406 E3.51799
G1 X62.562 Y117.479 E3.67271
G1 X93.226 Y106.774 E6.01599
G1 X82.525 Y137.429 E8.35856
G1 X82.205 Y136.719 F4500.000
G1 F1440
G1 X79.600 Y135.334 E8.57143
G1 X77.185 Y133.825 E8.77690
G1 X74.881 Y132.151 E8.98237
G1 X72.699 Y130.320 E9.18783
G1 X70.651 Y128.342 E9.39331
G1 X68.745 Y126.226 E9.59877
G1 X66.992 Y123.982 E9.80424
G1 X65.400 Y121.621 E10.00971
G1 X63.976 Y119.155 E10.21518
G1 X63.308 Y117.786 E10.32506
G1 X92.354 Y107.646 E12.54475
G1 X82.225 Y136.662 E14.76217
G1 X82.042 Y137.084 F4500.000
G1 E14.16217 F900.00000
G92 E0
G1 X71.343 Y132.219 F4500.000
G1 E0.65000 F900.00000
G1 F720
G1 X71.239 Y132.471 E0.66961
G1 X70.807 Y133.033 E0.72075
G1 X70.245 Y133.464 E0.77190
G1 X69.590 Y133.736 E0.82305
G1 X68.887 Y133.828 E0.87420
G1 X68.184 Y133.736 E0.92534
G1 X67.529 Y133.464 E0.97649
G1 X66.967 Y133.033 E1.02764
G1 X66.536 Y132.471 E1.07878
G1 X66.264 Y131.816 E1.12994
G1 X66.172 Y131.113 E1.18108
G1 X66.264 Y130.410 E1.23223
G1 X66.536 Y129.755 E1.28338
G1 X66.967 Y129.193 E1.33452
G1 X67.529 Y128.761 E1.38567
G1 X68.184 Y128.490 E1.43682
G1 X68.862 Y128.400 E1.48614
G1 X69.589 Y128.489 E1.53895
G1 X70.245 Y128.761 E1.59021
G1 X70.807 Y129.193 E1.64135
G1 X71.239 Y129.755 E1.69250
G1 X71.510 Y130.410 E1.74365
G1 X71.603 Y131.113 E1.79480
G1 X71.510 Y131.816 E1.84594
G1 X71.366 Y132.164 E1.87316
G1 X71.520 Y132.426 F4500.000
G1 E1.27316 F900.00000
G92 E0
G1 X95.091 Y105.452 F4500.000
G1 E0.65000 F900.00000
G1 F1920
G1 X94.723 Y105.096 E0.68694
G1 X94.380 Y104.716 E0.72389
G1 X94.065 Y104.312 E0.76083
G1 X93.779 Y103.888 E0.79778
G1 X93.523 Y103.444 E0.83472
G1 X93.297 Y102.982 E0.87181
G1 X93.095 Y102.475 E0.91121
G1 X92.948 Y102.022 E0.94555
G1 X92.824 Y101.525 E0.98250
G1 X92.735 Y101.019 E1.01959
G1 X92.680 Y100.476 E1.05898
G1 X92.664 Y100.000 E1.09332
G1 X92.682 Y99.488 E1.13027
G1 X92.735 Y98.977 E1.16736
G1 X92.833 Y98.440 E1.20676
G1 X92.948 Y97.978 E1.24110
G1 X93.107 Y97.489 E1.27819
G1 X93.314 Y96.984 E1.31758
G1 X93.523 Y96.556 E1.35193
G1 X93.779 Y96.112 E1.38887
G1 X94.065 Y95.688 E1.42581
G1 X94.380 Y95.284 E1.46276
G1 X94.723 Y94.904 E1.49970
G1 X95.091 Y94.548 E1.53665
G1 X95.483 Y94.219 E1.57359
G1 X95.898 Y93.918 E1.61054
G1 X96.332 Y93.647 E1.64748
G1 X96.784 Y93.406 E1.68443
G1 X97.252 Y93.198 E1.72137
G1 X97.733 Y93.023 E1.75832
G1 X98.225 Y92.882 E1.79526
G1 X98.726 Y92.775 E1.83221
G1 X99.233 Y92.704 E1.86915
G1 X99.744 Y92.668 E1.90609
G1 X100.256 Y92.668 E1.94304
G1 X100.767 Y92.704 E1.97998
G1 X101.274 Y92.775 E2.01693
G1 X101.775 Y92.882 E2.05387
G1 X102.267 Y93.023 E2.09082
G1 X102.748 Y93.198 E2.12776
G1 X103.183 Y93.392 E2.16211
G1 X103.666 Y93.646 E2.20150
G1 X104.102 Y93.918 E2.23859
G1 X104.517 Y94.219 E2.27554
G1 X104.909 Y94.548 E2.31248
G1 X105.277 Y94.904 E2.34943
G1 X105.620 Y95.284 E2.38637
G1 X105.935 Y95.688 E2.42332
G1 X106.221 Y96.112 E2.46026
G1 X106.477 Y96.556 E2.49720
G1 X106.703 Y97.018 E2.53430
G1 X106.905 Y97.525 E2.57369
G1 X107.052 Y97.978 E2.60803
G1 X107.176 Y98.475 E2.64498
G1 X107.265 Y98.981 E2.68207
G1 X107.320 Y99.524 E2.72146
G1 X107.336 Y100.000 E2.75581
G1 X107.318 Y100.512 E2.79275
G1 X107.265 Y101.023 E2.82984
G1 X107.167 Y101.560 E2.86924
G1 X107.052 Y102.022 E2.90358
G1 X106.893 Y102.511 E2.94067
G1 X106.686 Y103.016 E2.98006
G1 X106.477 Y103.444 E3.01441
G1 X106.221 Y103.888 E3.05135
G1 X105.935 Y104.312 E3.08830
G1 X105.620 Y104.716 E3.12524
G1 X105.277 Y105.096 E3.16219
G1 X104.909 Y105.452 E3.19913
G1 X104.517 Y105.781 E3.23608
G1 X104.102 Y106.082 E3.27302
G1 X103.668 Y106.353 E3.30996
G1 X103.216 Y106.594 E3.34691
G1 X102.748 Y106.802 E3.38385
G1 X102.267 Y106.977 E3.42080
G1 X101.775 Y107.118 E3.45774
G1 X101.274 Y107.225 E3.49469
G1 X100.767 Y107.296 E3.53163
G1 X100.256 Y107.332 E3.56858
