; generated by Slic3r 1.3.0-dev on 2018-01-07 at 14:56:36

; Print Config Notes: 
; DMF_3D_0.3mmThin222R25%
; 
; external perimeters extrusion width = 0.60mm (4.82mm^3/s)
; perimeters extrusion width = 0.54mm (5.71mm^3/s)
; infill extrusion width = 0.99mm (11.11mm^3/s)
; solid infill extrusion width = 0.51mm (5.35mm^3/s)
; top infill extrusion width = 0.51mm (5.35mm^3/s)

M190 S90 ; set bed temperature and wait for it to be reached
M104 S250 ; set temperature
G92.1 ; clear offsets
G28 ; home all axes
; Filament gcode

M109 S250 ; set temperature and wait for it to be reached
G21 ; set units to millimeters
G90 ; use absolute coordinates
M82 ; use absolute distances for extrusion
G92 E0
G1 Z0.300 F4500.000
G1 E-0.60000 F900.00000
G92 E0
G1 X58.675 Y59.869 F4500.000
G1 E0.65000 F900.00000
G1 F1920
G1 X61.336 Y57.299 E0.91691
G1 X64.409 Y54.706 E1.20700
G1 X67.655 Y52.334 E1.49710
G1 X71.337 Y50.033 E1.81036
G1 X74.603 Y48.296 E2.07727
G1 X78.272 Y46.651 E2.36739
G1 X82.352 Y45.166 E2.68065
G1 X86.220 Y44.068 E2.97075
G1 X90.155 Y43.243 E3.26084
G1 X93.819 Y42.728 E3.52775
G1 X98.150 Y42.425 E3.84103
G1 X102.171 Y42.437 E4.13111
G1 X105.861 Y42.695 E4.39803
G1 X110.161 Y43.299 E4.71131
G1 X113.780 Y44.068 E4.97822
G1 X117.648 Y45.166 E5.26832
G1 X121.728 Y46.651 E5.58158
G1 X125.397 Y48.296 E5.87169
G1 X128.663 Y50.033 E6.13860
G1 X132.345 Y52.334 E6.45187
G1 X135.591 Y54.706 E6.74197
G1 X138.425 Y57.084 E7.00888
G1 X141.325 Y59.869 E7.29897
G1 X144.024 Y62.850 E7.58907
G1 X146.697 Y66.271 E7.90235
G1 X148.766 Y69.338 E8.16926
G1 X150.786 Y72.815 E8.45935
G1 X152.689 Y76.717 E8.77262
G1 X154.075 Y80.147 E9.03953
G1 X155.328 Y83.968 E9.32962
G1 X156.312 Y87.866 E9.61973
G1 X157.066 Y92.142 E9.93300
G1 X157.453 Y95.821 E10.19991
G1 X157.604 Y99.839 E10.49000
G1 X157.475 Y103.858 E10.78009
G1 X157.021 Y108.176 E11.09338
G1 X156.379 Y111.819 E11.36028
G1 X155.417 Y115.723 E11.65037
G1 X154.075 Y119.853 E11.96366
G1 X152.689 Y123.283 E12.23057
G1 X150.937 Y126.902 E12.52066
G1 X148.766 Y130.662 E12.83393
G1 X146.697 Y133.729 E13.10084
G1 X144.231 Y136.904 E13.39093
G1 X141.325 Y140.131 E13.70421
G1 X138.664 Y142.701 E13.97113
G1 X135.591 Y145.294 E14.26121
G1 X132.345 Y147.666 E14.55132
G1 X128.663 Y149.967 E14.86458
G1 X125.397 Y151.704 E15.13149
G1 X121.728 Y153.349 E15.42160
G1 X117.648 Y154.834 E15.73487
G1 X113.780 Y155.932 E16.02497
G1 X109.845 Y156.757 E16.31505
G1 X106.181 Y157.272 E16.58196
G1 X101.850 Y157.575 E16.89525
G1 X97.829 Y157.563 E17.18533
G1 X94.139 Y157.305 E17.45224
G1 X89.839 Y156.701 E17.76552
G1 X86.220 Y155.932 E18.03243
G1 X82.352 Y154.834 E18.32253
G1 X78.272 Y153.349 E18.63579
G1 X74.893 Y151.845 E18.90271
G1 X71.337 Y149.967 E19.19282
G1 X67.655 Y147.666 E19.50608
G1 X64.409 Y145.294 E19.79619
G1 X61.575 Y142.916 E20.06309
G1 X58.675 Y140.131 E20.35319
G1 X55.976 Y137.150 E20.64328
G1 X53.303 Y133.729 E20.95656
G1 X51.234 Y130.662 E21.22347
G1 X49.214 Y127.185 E21.51356
G1 X47.311 Y123.283 E21.82684
G1 X45.925 Y119.853 E22.09374
G1 X44.706 Y116.138 E22.37583
G1 X44.583 Y115.723 E22.40704
G1 X43.688 Y112.134 E22.67395
G1 X42.934 Y107.858 E22.98722
G1 X42.547 Y104.179 E23.25413
G1 X42.396 Y100.161 E23.54423
G1 X42.547 Y95.821 E23.85751
G1 X42.979 Y91.824 E24.14760
G1 X43.621 Y88.181 E24.41451
G1 X44.583 Y84.277 E24.70460
G1 X45.925 Y80.147 E25.01789
G1 X47.311 Y76.717 E25.28479
G1 X49.063 Y73.098 E25.57488
G1 X51.234 Y69.338 E25.88816
G1 X53.303 Y66.271 E26.15507
G1 X55.769 Y63.096 E26.44516
G1 X58.633 Y59.912 E26.75411
G1 X59.047 Y60.255 F4500.000
G1 F1920
G1 X61.708 Y57.685 E27.02102
G1 X64.753 Y55.117 E27.30842
G1 X67.970 Y52.767 E27.59583
G1 X71.589 Y50.506 E27.90370
G1 X74.855 Y48.769 E28.17061
G1 X78.490 Y47.140 E28.45802
G1 X82.500 Y45.680 E28.76590
G1 X86.332 Y44.592 E29.05330
G1 X90.230 Y43.774 E29.34069
G1 X93.893 Y43.259 E29.60760
G1 X98.150 Y42.961 E29.91549
G1 X102.134 Y42.971 E30.20288
G1 X105.824 Y43.229 E30.46979
G1 X110.050 Y43.823 E30.77768
G1 X113.668 Y44.592 E31.04459
G1 X117.500 Y45.680 E31.33199
G1 X121.510 Y47.140 E31.63987
G1 X125.145 Y48.769 E31.92728
G1 X128.411 Y50.506 E32.19419
G1 X132.030 Y52.767 E32.50207
G1 X135.247 Y55.117 E32.78947
G1 X138.081 Y57.495 E33.05638
G1 X140.953 Y60.255 E33.34378
G1 X143.626 Y63.208 E33.63118
G1 X146.253 Y66.571 E33.93907
G1 X148.322 Y69.638 E34.20598
G1 X150.322 Y73.082 E34.49337
G1 X152.193 Y76.918 E34.80126
G1 X153.578 Y80.348 E35.06816
G1 X154.819 Y84.133 E35.35556
G1 X155.792 Y87.996 E35.64297
G1 X156.533 Y92.198 E35.95085
G1 X156.940 Y96.161 E36.23825
G1 X157.069 Y99.858 E36.50516
G1 X156.940 Y103.839 E36.79255
G1 X156.494 Y108.083 E37.10044
G1 X155.792 Y112.004 E37.38783
G1 X154.897 Y115.594 E37.65474
G1 X153.578 Y119.652 E37.96264
G1 X152.193 Y123.082 E38.22955
G1 X150.455 Y126.667 E38.51694
G1 X148.322 Y130.362 E38.82482
G1 X146.253 Y133.429 E39.09173
G1 X143.809 Y136.574 E39.37913
G1 X140.953 Y139.745 E39.68701
G1 X138.292 Y142.315 E39.95393
G1 X135.247 Y144.883 E40.24132
G1 X132.030 Y147.233 E40.52873
G1 X128.411 Y149.494 E40.83660
G1 X125.145 Y151.231 E41.10351
G1 X121.510 Y152.860 E41.39093
G1 X117.500 Y154.320 E41.69880
G1 X113.668 Y155.408 E41.98620
G1 X109.770 Y156.226 E42.27359
G1 X106.107 Y156.741 E42.54050
G1 X101.850 Y157.039 E42.84840
G1 X97.867 Y157.029 E43.13578
G1 X94.176 Y156.771 E43.40270
G1 X89.950 Y156.177 E43.71058
G1 X86.332 Y155.408 E43.97750
G1 X82.500 Y154.320 E44.26490
G1 X78.490 Y152.860 E44.57277
G1 X75.110 Y151.355 E44.83968
G1 X71.589 Y149.494 E45.12709
G1 X67.970 Y147.233 E45.43497
G1 X64.753 Y144.883 E45.72238
G1 X61.919 Y142.505 E45.98928
G1 X59.047 Y139.745 E46.27668
G1 X56.374 Y136.792 E46.56408
G1 X53.747 Y133.429 E46.87197
G1 X51.678 Y130.362 E47.13888
G1 X49.678 Y126.918 E47.42627
G1 X47.807 Y123.082 E47.73416
G1 X46.422 Y119.652 E48.00106
G1 X45.215 Y115.972 E48.28046
G1 X45.103 Y115.594 E48.30897
G1 X44.208 Y112.004 E48.57588
G1 X43.467 Y107.802 E48.88376
G1 X43.080 Y104.123 E49.15067
G1 X42.931 Y100.142 E49.43807
G1 X43.080 Y95.877 E49.74595
G1 X43.506 Y91.917 E50.03335
G1 X44.149 Y88.274 E50.30026
G1 X45.103 Y84.406 E50.58765
G1 X46.422 Y80.348 E50.89555
G1 X47.807 Y76.918 E51.16245
G1 X49.545 Y73.333 E51.44985
G1 X51.678 Y69.638 E51.75773
G1 X53.747 Y66.571 E52.02464
G1 X56.191 Y63.426 E52.31204
G1 X59.005 Y60.298 E52.61560
G1 X59.419 Y60.640 F4500.000
G1 F1920
G1 X62.263 Y57.905 E52.90031
G1 X65.097 Y55.527 E53.16721
G1 X68.285 Y53.201 E53.45192
G1 X71.840 Y50.979 E53.75440
G1 X75.106 Y49.242 E54.02131
G1 X78.708 Y47.629 E54.30603
G1 X82.413 Y46.272 E54.59072
G1 X86.443 Y45.116 E54.89322
G1 X90.305 Y44.304 E55.17792
G1 X93.968 Y43.789 E55.44483
G1 X98.150 Y43.497 E55.74733
G1 X102.096 Y43.505 E56.03202
G1 X105.787 Y43.763 E56.29893
G1 X109.938 Y44.347 E56.60143
G1 X113.557 Y45.116 E56.86834
G1 X117.352 Y46.195 E57.15304
G1 X121.292 Y47.629 E57.45553
G1 X124.894 Y49.242 E57.74024
G1 X128.160 Y50.979 E58.00716
G1 X131.715 Y53.201 E58.30964
G1 X134.903 Y55.527 E58.59435
G1 X137.737 Y57.905 E58.86125
G1 X140.581 Y60.640 E59.14596
G1 X143.228 Y63.567 E59.43066
G1 X145.809 Y66.870 E59.73316
G1 X147.878 Y69.937 E60.00007
G1 X149.858 Y73.350 E60.28477
G1 X151.696 Y77.119 E60.58726
G1 X153.082 Y80.548 E60.85416
G1 X154.309 Y84.299 E61.13887
G1 X155.272 Y88.125 E61.42358
G1 X156.000 Y92.254 E61.72607
G1 X156.404 Y96.180 E62.01077
G1 X156.533 Y99.877 E62.27768
G1 X156.404 Y103.820 E62.56238
G1 X155.966 Y107.990 E62.86488
G1 X155.324 Y111.633 E63.13179
G1 X154.377 Y115.464 E63.41649
G1 X153.082 Y119.452 E63.71899
G1 X151.696 Y122.882 E63.98590
G1 X149.974 Y126.432 E64.27059
G1 X147.878 Y130.063 E64.57309
G1 X145.809 Y133.130 E64.83999
G1 X143.387 Y136.244 E65.12469
G1 X140.581 Y139.360 E65.42719
G1 X137.920 Y141.930 E65.69411
G1 X134.903 Y144.473 E65.97880
G1 X131.715 Y146.799 E66.26351
G1 X128.160 Y149.021 E66.56600
G1 X124.894 Y150.758 E66.83290
G1 X121.292 Y152.371 E67.11762
G1 X117.352 Y153.805 E67.42011
G1 X113.557 Y154.884 E67.70481
G1 X109.695 Y155.696 E67.98951
G1 X106.032 Y156.211 E68.25642
G1 X101.850 Y156.503 E68.55892
G1 X97.904 Y156.495 E68.84361
G1 X94.213 Y156.237 E69.11052
G1 X90.062 Y155.653 E69.41302
G1 X86.443 Y154.884 E69.67993
G1 X82.648 Y153.805 E69.96464
G1 X78.708 Y152.371 E70.26712
G1 X75.328 Y150.866 E70.53403
G1 X71.840 Y149.021 E70.81875
G1 X68.285 Y146.799 E71.12123
G1 X65.097 Y144.473 E71.40594
G1 X62.263 Y142.095 E71.67285
G1 X59.419 Y139.360 E71.95755
G1 X56.613 Y136.244 E72.26005
G1 X54.191 Y133.130 E72.54475
G1 X52.122 Y130.063 E72.81166
G1 X50.142 Y126.650 E73.09635
G1 X48.304 Y122.881 E73.39885
G1 X46.918 Y119.452 E73.66576
G1 X45.725 Y115.807 E73.94245
G1 X45.622 Y115.464 E73.96827
G1 X44.728 Y111.875 E74.23518
G1 X44.000 Y107.746 E74.53767
G1 X43.613 Y104.067 E74.80458
G1 X43.467 Y100.123 E75.08928
G1 X43.596 Y96.180 E75.37398
G1 X44.034 Y92.010 E75.67648
G1 X44.676 Y88.367 E75.94339
G1 X45.622 Y84.536 E76.22808
G1 X46.918 Y80.548 E76.53059
G1 X48.304 Y77.118 E76.79749
G1 X50.026 Y73.568 E77.08219
G1 X52.122 Y69.937 E77.38469
G1 X54.191 Y66.870 E77.65159
G1 X56.613 Y63.756 E77.93629
G1 X59.377 Y60.683 E78.23447
G1 E77.63447 F900.00000
G92 E0
G1 X100.518 Y147.563 F4500.000
G1 E0.65000 F900.00000
G1 F720
G1 X101.002 Y147.764 E0.68783
G1 X101.417 Y148.083 E0.72559
G1 X101.736 Y148.498 E0.76334
G1 X101.936 Y148.981 E0.80109
G1 X102.005 Y149.501 E0.83893
G1 X101.931 Y150.032 E0.87761
G1 X101.736 Y150.502 E0.91432
G1 X101.417 Y150.917 E0.95207
G1 X101.002 Y151.236 E0.98983
G1 X100.532 Y151.431 E1.02653
G1 X100.001 Y151.505 E1.06521
G1 X99.481 Y151.436 E1.10305
G1 X98.998 Y151.236 E1.14080
G1 X98.583 Y150.917 E1.17855
G1 X98.264 Y150.502 E1.21631
G1 X98.064 Y150.019 E1.25406
G1 X97.995 Y149.499 E1.29190
G1 X98.069 Y148.968 E1.33058
G1 X98.264 Y148.498 E1.36728
G1 X98.583 Y148.083 E1.40504
G1 X98.998 Y147.764 E1.44279
G1 X99.481 Y147.564 E1.48054
G1 X99.986 Y147.497 E1.51725
G1 X100.458 Y147.556 E1.55160
G1 X100.518 Y147.563 F4500.000
G1 E0.95160 F900.00000
G92 E0
G1 X66.934 Y135.521 F4500.000
G1 E0.65000 F900.00000
G1 F720
G1 X66.734 Y136.004 E0.68776
G1 X66.416 Y136.419 E0.72550
G1 X66.000 Y136.738 E0.76326
G1 X65.517 Y136.938 E0.80101
G1 X64.998 Y137.006 E0.83877
G1 X64.479 Y136.938 E0.87651
G1 X64.009 Y136.743 E0.91323
G1 X63.581 Y136.419 E0.95199
G1 X63.257 Y135.991 E0.99075
G1 X63.062 Y135.521 E1.02747
G1 X62.994 Y135.002 E1.06522
G1 X63.062 Y134.483 E1.10297
G1 X63.262 Y134.000 E1.14072
G1 X63.581 Y133.584 E1.17848
G1 X63.996 Y133.266 E1.21623
G1 X64.479 Y133.066 E1.25398
G1 X64.984 Y132.999 E1.29068
G1 X65.516 Y133.065 E1.32937
G1 X66.000 Y133.266 E1.36720
G1 X66.416 Y133.584 E1.40496
G1 X66.734 Y134.000 E1.44271
G1 X66.934 Y134.483 E1.48046
G1 X67.003 Y135.002 E1.51821
G1 X66.942 Y135.461 E1.55163
G1 X66.934 Y135.521 F4500.000
G1 E0.95163 F900.00000
G92 E0
G1 X51.502 Y101.736 F4500.000
G1 E0.65000 F900.00000
G1 F720
G1 X51.019 Y101.936 E0.68775
G1 X50.500 Y102.004 E0.72550
G1 X49.981 Y101.936 E0.76326
G1 X49.498 Y101.736 E0.80101
G1 X49.083 Y101.417 E0.83877
G1 X48.764 Y101.002 E0.87652
G1 X48.564 Y100.519 E0.91427
G1 X48.495 Y99.999 E0.95210
G1 X48.569 Y99.468 E0.99079
G1 X48.764 Y98.998 E1.02749
G1 X49.083 Y98.583 E1.06524
G1 X49.498 Y98.264 E1.10300
G1 X49.981 Y98.064 E1.14075
G1 X50.486 Y97.998 E1.17746
G1 X51.018 Y98.063 E1.21614
G1 X51.502 Y98.264 E1.25398
G1 X51.917 Y98.583 E1.29173
G1 X52.234 Y98.996 E1.32927
G1 X52.432 Y99.448 E1.36491
G1 X52.504 Y100.000 E1.40507
G1 X52.436 Y100.519 E1.44282
G1 X52.236 Y101.002 E1.48057
G1 X51.917 Y101.417 E1.51832
G1 X51.550 Y101.699 E1.55175
G1 X51.502 Y101.736 F4500.000
G1 E0.95175 F900.00000
G92 E0
G1 X64.479 Y66.934 F4500.000
G1 E0.65000 F900.00000
G1 F720
G1 X63.996 Y66.734 E0.68776
G1 X63.580 Y66.415 E0.72559
G1 X63.257 Y65.987 E0.76427
G1 X63.062 Y65.517 E0.80098
G1 X62.994 Y64.998 E0.83873
G1 X63.062 Y64.479 E0.87648
G1 X63.262 Y63.996 E0.91424
G1 X63.581 Y63.581 E0.95199
G1 X63.996 Y63.262 E0.98974
G1 X64.479 Y63.062 E1.02750
G1 X64.984 Y62.996 E1.06420
G1 X65.516 Y63.062 E1.10289
G1 X66.000 Y63.262 E1.14072
G1 X66.416 Y63.581 E1.17848
G1 X66.734 Y63.996 E1.21623
G1 X66.934 Y64.479 E1.25398
G1 X67.003 Y64.998 E1.29173
G1 X66.934 Y65.517 E1.32948
G1 X66.734 Y66.000 E1.36723
G1 X66.416 Y66.416 E1.40499
G1 X66.000 Y66.734 E1.44274
G1 X65.517 Y66.934 E1.48049
G1 X64.998 Y67.003 E1.51824
G1 X64.539 Y66.942 E1.55166
G1 X64.479 Y66.934 F4500.000
G1 E0.95166 F900.00000
G92 E0
G1 X67.615 Y69.750 F4500.000
G1 E0.65000 F900.00000
G1 F1920
G1 X68.107 Y69.202 E0.70316
G1 X70.333 Y67.052 E0.92647
G1 X72.704 Y65.063 E1.14975
G1 X75.208 Y63.244 E1.37302
G1 X77.832 Y61.604 E1.59630
G1 X80.564 Y60.151 E1.81958
G1 X83.378 Y58.898 E2.04180
G1 X86.299 Y57.834 E2.26612
G1 X89.274 Y56.981 E2.48941
G1 X92.301 Y56.337 E2.71268
G1 X95.351 Y55.909 E2.93491
G1 X98.453 Y55.691 E3.15922
G1 X101.547 Y55.691 E3.38251
G1 X104.569 Y55.902 E3.60104
G1 X107.698 Y56.337 E3.82900
G1 X110.726 Y56.981 E4.05237
G1 X113.766 Y57.858 E4.28060
G1 X116.609 Y58.892 E4.49886
G1 X119.436 Y60.151 E4.72214
G1 X122.168 Y61.604 E4.94542
G1 X124.792 Y63.244 E5.16869
G1 X127.251 Y65.030 E5.38793
G1 X129.666 Y67.051 E5.61520
G1 X131.893 Y69.202 E5.83851
G1 X133.921 Y71.454 E6.05722
G1 X135.869 Y73.940 E6.28505
G1 X137.634 Y76.566 E6.51334
G1 X139.146 Y79.185 E6.73159
G1 X140.503 Y81.967 E6.95487
G1 X141.662 Y84.836 E7.17814
G1 X142.578 Y87.654 E7.39190
G1 X143.367 Y90.781 E7.62459
G1 X143.905 Y93.830 E7.84795
G1 X144.228 Y96.907 E8.07123
G1 X144.332 Y99.878 E8.28570
G1 X144.228 Y103.092 E8.51768
G1 X143.905 Y106.170 E8.74103
G1 X143.367 Y109.218 E8.96431
G1 X142.648 Y112.102 E9.17878
G1 X141.663 Y115.163 E9.41076
G1 X140.503 Y118.033 E9.63412
G1 X139.175 Y120.755 E9.85265
G1 X137.600 Y123.494 E10.08062
G1 X135.869 Y126.060 E10.30394
G1 X133.998 Y128.455 E10.52318
G1 X131.893 Y130.798 E10.75044
G1 X129.667 Y132.948 E10.97375
G1 X127.296 Y134.937 E11.19703
G1 X124.792 Y136.757 E11.42035
G1 X122.110 Y138.427 E11.64831
G1 X119.436 Y139.849 E11.86685
G1 X116.609 Y141.108 E12.09012
G1 X113.701 Y142.166 E12.31340
G1 X110.726 Y143.019 E12.53668
G1 X107.699 Y143.663 E12.75995
G1 X104.765 Y144.075 E12.97371
G1 X101.549 Y144.309 E13.20640
G1 X98.453 Y144.309 E13.42976
G1 X95.421 Y144.097 E13.64900
G1 X92.302 Y143.663 E13.87626
G1 X89.274 Y143.019 E14.09962
G1 X86.238 Y142.144 E14.32758
G1 X83.391 Y141.108 E14.54612
G1 X80.578 Y139.855 E14.76835
G1 X77.832 Y138.396 E14.99266
G1 X75.208 Y136.756 E15.21595
G1 X72.757 Y134.976 E15.43448
G1 X70.334 Y132.949 E15.66244
G1 X68.107 Y130.798 E15.88576
G1 X66.079 Y128.546 E16.10447
G1 X64.131 Y126.060 E16.33229
G1 X62.373 Y123.446 E16.55960
G1 X60.854 Y120.815 E16.77885
G1 X59.497 Y118.033 E17.00212
G1 X58.338 Y115.164 E17.22539
G1 X57.422 Y112.346 E17.43916
G1 X56.633 Y109.219 E17.67184
G1 X56.095 Y106.170 E17.89520
G1 X55.772 Y103.093 E18.11848
G1 X55.664 Y100.015 E18.34071
G1 X55.772 Y96.907 E18.56502
G1 X56.095 Y93.830 E18.78831
G1 X56.633 Y90.782 E19.01158
G1 X57.352 Y87.898 E19.22605
G1 X58.337 Y84.837 E19.45804
G1 X59.497 Y81.967 E19.68139
G1 X60.825 Y79.245 E19.89992
G1 X62.400 Y76.506 E20.12789
G1 X64.131 Y73.940 E20.35121
G1 X66.002 Y71.545 E20.57045
G1 X67.574 Y69.795 E20.74022
G1 X68.013 Y70.108 F4500.000
G1 F1440
G1 X68.493 Y69.574 E20.79201
G1 X70.692 Y67.450 E21.01260
G1 X73.034 Y65.485 E21.23318
G1 X75.507 Y63.688 E21.45375
G1 X78.100 Y62.068 E21.67433
G1 X80.799 Y60.633 E21.89491
G1 X83.579 Y59.395 E22.11444
G1 X86.465 Y58.344 E22.33606
G1 X89.404 Y57.501 E22.55664
G1 X92.394 Y56.865 E22.77721
G1 X95.407 Y56.442 E22.99675
G1 X98.471 Y56.227 E23.21836
G1 X101.529 Y56.227 E23.43894
G1 X104.513 Y56.435 E23.65481
G1 X107.606 Y56.865 E23.88007
G1 X110.596 Y57.501 E24.10068
G1 X113.600 Y58.367 E24.32622
G1 X116.408 Y59.389 E24.54181
G1 X119.201 Y60.633 E24.76238
G1 X121.900 Y62.068 E24.98296
G1 X124.493 Y63.688 E25.20354
G1 X126.921 Y65.452 E25.42011
G1 X129.308 Y67.450 E25.64467
G1 X131.507 Y69.574 E25.86526
G1 X133.511 Y71.799 E26.08130
G1 X135.435 Y74.255 E26.30640
G1 X137.179 Y76.849 E26.53196
G1 X138.673 Y79.437 E26.74754
G1 X140.013 Y82.185 E26.96812
G1 X141.159 Y85.019 E27.18870
