; generated by Slic3r 1.3.0-dev on 2018-01-07 at 16:53:00

; Print Config Notes: 
; DMF_3D_0.3mmThin222R25%
; 
; external perimeters extrusion width = 0.60mm (4.82mm^3/s)
; perimeters extrusion width = 0.54mm (5.71mm^3/s)
; infill extrusion width = 0.99mm (11.11mm^3/s)
; solid infill extrusion width = 0.51mm (5.35mm^3/s)
; top infill extrusion width = 0.51mm (5.35mm^3/s)

M190 S90 ; set bed temperature and wait for it to be reached
M104 S250 ; set temperature
G92.1 ; clear offsets
G28 ; home all axes
; Filament gcode

M109 S250 ; set temperature and wait for it to be reached
G21 ; set units to millimeters
G90 ; use absolute coordinates
M82 ; use absolute distances for extrusion
G92 E0
G1 Z0.300 F4500.000
G1 E-0.60000 F900.00000
G92 E0
G1 X61.624 Y62.717 F4500.000
G1 E0.65000 F900.00000
G1 F1920
G1 X64.318 Y60.131 E0.91946
G1 X66.933 Y57.937 E1.16572
G1 X69.948 Y55.733 E1.43516
G1 X73.387 Y53.584 E1.72779
G1 X76.401 Y51.981 E1.97405
G1 X79.808 Y50.452 E2.24348
G1 X83.313 Y49.164 E2.51294
G1 X87.212 Y48.046 E2.80558
G1 X90.867 Y47.281 E3.07502
G1 X94.247 Y46.806 E3.32128
G1 X98.293 Y46.523 E3.61391
G1 X102.028 Y46.534 E3.88336
G1 X105.433 Y46.772 E4.12962
G1 X109.449 Y47.337 E4.42224
G1 X113.100 Y48.124 E4.69170
G1 X116.687 Y49.164 E4.96114
G1 X119.894 Y50.332 E5.20740
G1 X123.599 Y51.981 E5.50003
G1 X126.613 Y53.584 E5.74629
G1 X129.786 Y55.553 E6.01574
G1 X133.067 Y57.937 E6.30836
G1 X135.682 Y60.131 E6.55462
G1 X138.376 Y62.717 E6.82408
G1 X141.090 Y65.731 E7.11671
G1 X143.191 Y68.421 E7.36297
G1 X145.289 Y71.511 E7.63241
G1 X147.317 Y75.023 E7.92504
G1 X148.813 Y78.091 E8.17131
G1 X150.222 Y81.549 E8.44075
G1 X151.476 Y85.407 E8.73339
G1 X152.301 Y88.719 E8.97965
G1 X152.961 Y92.394 E9.24909
G1 X153.363 Y96.107 E9.51854
G1 X153.504 Y100.161 E9.81117
G1 X153.385 Y103.572 E10.05743
G1 X153.006 Y107.287 E10.32688
G1 X152.301 Y111.281 E10.61951
G1 X151.476 Y114.593 E10.86577
G1 X150.491 Y117.661 E11.09828
G1 X150.222 Y118.451 E11.15841
G1 X148.944 Y121.615 E11.40467
G1 X147.317 Y124.977 E11.67412
G1 X145.289 Y128.489 E11.96676
G1 X143.380 Y131.319 E12.21302
G1 X141.090 Y134.269 E12.48245
G1 X138.376 Y137.283 E12.77508
G1 X135.682 Y139.869 E13.04454
G1 X133.067 Y142.063 E13.29080
G1 X130.052 Y144.267 E13.56024
G1 X126.613 Y146.416 E13.85287
G1 X123.310 Y148.160 E14.12231
G1 X120.192 Y149.548 E14.36857
G1 X116.687 Y150.836 E14.63803
G1 X112.788 Y151.954 E14.93066
G1 X109.449 Y152.663 E15.17692
G1 X105.753 Y153.194 E15.44636
G1 X101.707 Y153.477 E15.73899
G1 X98.293 Y153.477 E15.98525
G1 X94.567 Y153.228 E16.25470
G1 X90.551 Y152.663 E16.54733
G1 X86.900 Y151.876 E16.81678
G1 X83.619 Y150.935 E17.06304
G1 X80.106 Y149.668 E17.33249
G1 X76.401 Y148.019 E17.62511
G1 X73.387 Y146.416 E17.87138
G1 X70.214 Y144.447 E18.14082
G1 X66.933 Y142.063 E18.43345
G1 X64.318 Y139.869 E18.67971
G1 X61.624 Y137.283 E18.94916
G1 X58.910 Y134.269 E19.24180
G1 X56.809 Y131.579 E19.48805
G1 X54.711 Y128.489 E19.75749
G1 X52.834 Y125.261 E20.02695
G1 X51.056 Y121.615 E20.31958
G1 X49.668 Y118.148 E20.58903
G1 X48.613 Y114.902 E20.83528
G1 X47.699 Y111.281 E21.10473
G1 X46.994 Y107.287 E21.39736
G1 X46.637 Y103.893 E21.64362
G1 X46.496 Y100.161 E21.91307
G1 X46.615 Y96.428 E22.18251
G1 X47.039 Y92.394 E22.47515
G1 X47.632 Y89.033 E22.72141
G1 X48.524 Y85.407 E22.99085
G1 X49.778 Y81.549 E23.28349
G1 X51.056 Y78.385 E23.52975
G1 X52.683 Y75.023 E23.79920
G1 X54.711 Y71.511 E24.09183
G1 X56.620 Y68.681 E24.33810
G1 X58.910 Y65.731 E24.60753
G1 X61.582 Y62.760 E24.89584
G1 X61.996 Y63.103 F4500.000
G1 F1920
G1 X64.663 Y60.541 E25.16259
G1 X67.277 Y58.347 E25.40886
G1 X70.262 Y56.166 E25.67560
G1 X73.639 Y54.057 E25.96284
G1 X76.652 Y52.454 E26.20910
G1 X80.026 Y50.941 E26.47584
G1 X83.497 Y49.668 E26.74260
G1 X87.324 Y48.570 E27.02984
G1 X90.662 Y47.861 E27.27610
G1 X94.322 Y47.336 E27.54285
G1 X98.293 Y47.059 E27.83009
G1 X101.707 Y47.059 E28.07635
G1 X105.395 Y47.307 E28.34310
G1 X109.338 Y47.861 E28.63034
G1 X112.952 Y48.639 E28.89709
G1 X116.233 Y49.580 E29.14335
G1 X119.711 Y50.835 E29.41011
G1 X123.348 Y52.454 E29.69734
G1 X126.607 Y54.199 E29.96410
G1 X129.502 Y56.008 E30.21035
G1 X132.723 Y58.347 E30.49758
G1 X135.337 Y60.541 E30.74385
G1 X138.004 Y63.103 E31.01061
G1 X140.668 Y66.061 E31.29785
G1 X142.769 Y68.751 E31.54411
G1 X144.845 Y71.810 E31.81085
G1 X146.702 Y75.007 E32.07761
G1 X148.447 Y78.585 E32.36485
G1 X149.823 Y82.017 E32.63160
G1 X150.878 Y85.263 E32.87786
G1 X151.782 Y88.848 E33.14461
G1 X152.473 Y92.769 E33.43184
G1 X152.830 Y96.163 E33.67811
G1 X152.969 Y99.858 E33.94486
G1 X152.850 Y103.553 E34.21161
G1 X152.433 Y107.513 E34.49885
G1 X151.841 Y110.874 E34.74511
G1 X150.956 Y114.464 E35.01186
G1 X149.726 Y118.250 E35.29910
G1 X148.447 Y121.415 E35.54536
G1 X146.835 Y124.742 E35.81212
G1 X144.845 Y128.190 E36.09936
G1 X142.936 Y131.019 E36.34562
G1 X140.668 Y133.939 E36.61236
G1 X138.004 Y136.897 E36.89960
G1 X135.337 Y139.459 E37.16636
G1 X132.723 Y141.653 E37.41262
G1 X129.738 Y143.834 E37.67937
G1 X126.361 Y145.943 E37.96660
G1 X123.348 Y147.546 E38.21287
G1 X119.974 Y149.059 E38.47961
G1 X116.503 Y150.332 E38.74637
G1 X112.676 Y151.430 E39.03361
G1 X109.338 Y152.139 E39.27987
G1 X105.678 Y152.664 E39.54662
G1 X101.707 Y152.941 E39.83386
G1 X98.293 Y152.941 E40.08012
G1 X94.605 Y152.693 E40.34687
G1 X90.662 Y152.139 E40.63410
G1 X87.048 Y151.361 E40.90086
G1 X83.767 Y150.420 E41.14712
G1 X80.289 Y149.165 E41.41387
G1 X76.652 Y147.546 E41.70111
G1 X73.639 Y145.943 E41.94737
G1 X70.498 Y143.993 E42.21412
G1 X67.277 Y141.653 E42.50135
G1 X64.451 Y139.268 E42.76811
G1 X61.996 Y136.897 E43.01437
G1 X59.332 Y133.939 E43.30161
G1 X57.064 Y131.019 E43.56835
G1 X55.155 Y128.190 E43.81461
G1 X53.298 Y124.993 E44.08137
G1 X51.553 Y121.415 E44.36861
G1 X50.177 Y117.983 E44.63536
G1 X49.044 Y114.464 E44.90211
G1 X48.218 Y111.152 E45.14837
G1 X47.527 Y107.231 E45.43561
G1 X47.170 Y103.837 E45.68187
G1 X47.031 Y100.142 E45.94863
G1 X47.150 Y96.447 E46.21537
G1 X47.567 Y92.487 E46.50262
G1 X48.159 Y89.126 E46.74888
G1 X49.044 Y85.536 E47.01563
G1 X50.274 Y81.750 E47.30287
G1 X51.668 Y78.326 E47.56962
G1 X53.165 Y75.258 E47.81588
G1 X55.155 Y71.810 E48.10313
G1 X57.064 Y68.981 E48.34939
G1 X59.332 Y66.061 E48.61612
G1 X61.954 Y63.146 E48.89904
G1 X62.368 Y63.488 F4500.000
G1 F1920
G1 X65.007 Y60.952 E49.16310
G1 X67.622 Y58.758 E49.40936
G1 X70.577 Y56.600 E49.67341
G1 X73.890 Y54.530 E49.95526
G1 X77.126 Y52.819 E50.21931
G1 X80.244 Y51.431 E50.46557
G1 X83.680 Y50.171 E50.72963
G1 X87.435 Y49.094 E51.01148
G1 X90.774 Y48.385 E51.25774
G1 X94.397 Y47.867 E51.52179
G1 X98.293 Y47.594 E51.80364
G1 X101.953 Y47.603 E52.06770
G1 X105.358 Y47.841 E52.31396
G1 X109.226 Y48.385 E52.59580
G1 X112.805 Y49.154 E52.85986
G1 X116.085 Y50.095 E53.10612
G1 X119.528 Y51.338 E53.37018
G1 X123.096 Y52.927 E53.65202
G1 X126.324 Y54.653 E53.91608
G1 X129.218 Y56.462 E54.16234
G1 X132.378 Y58.758 E54.44418
G1 X134.993 Y60.952 E54.69044
G1 X137.632 Y63.488 E54.95450
G1 X140.246 Y66.391 E55.23635
G1 X142.347 Y69.081 E55.48261
G1 X144.401 Y72.110 E55.74666
G1 X146.238 Y75.275 E56.01072
G1 X147.951 Y78.786 E56.29257
G1 X149.314 Y82.183 E56.55662
G1 X150.368 Y85.429 E56.80288
G1 X151.262 Y88.978 E57.06694
G1 X151.940 Y92.825 E57.34878
G1 X152.297 Y96.219 E57.59504
G1 X152.433 Y99.877 E57.85910
G1 X152.314 Y103.534 E58.12315
G1 X151.906 Y107.420 E58.40500
G1 X151.313 Y110.781 E58.65127
G1 X150.436 Y114.334 E58.91532
G1 X149.229 Y118.049 E59.19717
G1 X147.951 Y121.214 E59.44343
G1 X146.354 Y124.507 E59.70749
G1 X144.401 Y127.890 E59.98934
G1 X142.492 Y130.720 E60.23560
G1 X140.246 Y133.609 E60.49964
G1 X137.632 Y136.512 E60.78149
G1 X134.993 Y139.048 E61.04556
G1 X132.378 Y141.242 E61.29182
G1 X129.423 Y143.400 E61.55587
G1 X126.110 Y145.470 E61.83771
G1 X123.096 Y147.073 E62.08398
G1 X119.756 Y148.569 E62.34802
G1 X116.320 Y149.829 E62.61209
G1 X112.565 Y150.906 E62.89393
G1 X109.226 Y151.615 E63.14020
G1 X105.603 Y152.133 E63.40425
G1 X101.707 Y152.406 E63.68609
G1 X98.293 Y152.406 E63.93235
G1 X94.642 Y152.159 E64.19641
G1 X90.774 Y151.615 E64.47825
G1 X87.195 Y150.846 E64.74231
G1 X83.915 Y149.905 E64.98857
G1 X80.472 Y148.662 E65.25263
G1 X76.904 Y147.073 E65.53447
G1 X73.890 Y145.470 E65.78074
G1 X70.782 Y143.538 E66.04479
G1 X67.622 Y141.242 E66.32663
G1 X64.823 Y138.883 E66.59070
G1 X62.368 Y136.512 E66.83695
G1 X59.754 Y133.609 E67.11881
G1 X57.508 Y130.720 E67.38285
G1 X55.599 Y127.890 E67.62911
G1 X53.762 Y124.725 E67.89317
G1 X52.049 Y121.214 E68.17502
G1 X50.686 Y117.817 E68.43908
G1 X49.564 Y114.334 E68.70313
G1 X48.738 Y111.022 E68.94939
G1 X48.060 Y107.175 E69.23124
G1 X47.703 Y103.781 E69.47750
G1 X47.567 Y100.123 E69.74156
G1 X47.686 Y96.466 E70.00561
G1 X48.094 Y92.580 E70.28746
G1 X48.687 Y89.219 E70.53372
G1 X49.564 Y85.666 E70.79777
G1 X50.771 Y81.951 E71.07962
G1 X52.049 Y78.786 E71.32588
G1 X53.646 Y75.493 E71.58994
G1 X55.599 Y72.110 E71.87179
G1 X57.508 Y69.280 E72.11805
G1 X59.754 Y66.391 E72.38210
G1 X62.327 Y63.531 E72.65962
G1 E72.05962 F900.00000
G92 E0
G1 X127.940 Y130.483 F4500.000
G1 E0.65000 F900.00000
G1 F1920
G1 X125.449 Y132.573 E0.88458
G1 X123.158 Y134.238 E1.08888
G1 X120.669 Y135.798 E1.30086
G1 X118.121 Y137.153 E1.50908
G1 X115.485 Y138.326 E1.71724
G1 X112.824 Y139.295 E1.92154
G1 X110.001 Y140.108 E2.13353
G1 X107.178 Y140.708 E2.34174
G1 X104.321 Y141.110 E2.54990
G1 X101.768 Y141.288 E2.73451
G1 X102.305 Y141.700 E2.78336
G1 X102.830 Y142.398 E2.84635
G1 X103.145 Y143.157 E2.90566
G1 X103.256 Y144.000 E2.96698
G1 X103.145 Y144.843 E3.02830
G1 X102.820 Y145.628 E3.08963
G1 X102.302 Y146.302 E3.15094
G1 X101.628 Y146.820 E3.21227
G1 X100.843 Y147.145 E3.27359
G1 X100.000 Y147.256 E3.33492
G1 X99.157 Y147.145 E3.39624
G1 X98.372 Y146.820 E3.45757
G1 X97.695 Y146.300 E3.51918
G1 X97.170 Y145.602 E3.58217
G1 X96.855 Y144.843 E3.64148
G1 X96.744 Y144.000 E3.70280
G1 X96.855 Y143.157 E3.76412
G1 X97.180 Y142.372 E3.82545
G1 X97.698 Y141.698 E3.88676
G1 X98.232 Y141.288 E3.93532
G1 X95.679 Y141.110 E4.11993
G1 X92.822 Y140.708 E4.32809
G1 X90.000 Y140.108 E4.53626
G1 X87.226 Y139.313 E4.74443
G1 X84.515 Y138.326 E4.95260
G1 X81.879 Y137.153 E5.16077
G1 X79.332 Y135.798 E5.36894
G1 X76.885 Y134.269 E5.57710
G1 X74.551 Y132.573 E5.78527
G1 X72.303 Y130.677 E5.99746
G1 X72.099 Y130.780 E6.01391
G1 X72.143 Y131.113 E6.03812
G1 X72.032 Y131.955 E6.09944
G1 X71.707 Y132.741 E6.16077
G1 X71.189 Y133.415 E6.22209
G1 X70.515 Y133.932 E6.28341
G1 X69.730 Y134.258 E6.34474
G1 X68.887 Y134.369 E6.40606
G1 X68.045 Y134.258 E6.46738
G1 X67.259 Y133.932 E6.52871
G1 X66.585 Y133.415 E6.59003
G1 X66.068 Y132.741 E6.65135
G1 X65.742 Y131.955 E6.71268
G1 X65.631 Y131.113 E6.77400
G1 X65.742 Y130.270 E6.83532
G1 X66.068 Y129.485 E6.89665
G1 X66.585 Y128.811 E6.95797
G1 X67.259 Y128.293 E7.01928
G1 X68.045 Y127.968 E7.08061
G1 X68.860 Y127.861 E7.13992
G1 X69.575 Y127.948 E7.19191
G1 X68.335 Y126.570 E7.32564
G1 X66.558 Y124.297 E7.53381
G1 X64.945 Y121.905 E7.74197
G1 X63.502 Y119.406 E7.95014
G1 X62.238 Y116.813 E8.15831
G1 X61.157 Y114.138 E8.36648
G1 X60.265 Y111.394 E8.57465
G1 X59.567 Y108.594 E8.78285
G1 X59.061 Y105.700 E8.99484
G1 X58.765 Y102.883 E9.19914
G1 X58.725 Y101.751 E9.28089
G1 X58.302 Y102.302 E9.33101
G1 X57.628 Y102.820 E9.39233
G1 X56.843 Y103.145 E9.45365
G1 X56.000 Y103.256 E9.51497
G1 X55.157 Y103.145 E9.57629
G1 X54.398 Y102.830 E9.63560
G1 X53.700 Y102.305 E9.69859
G1 X53.180 Y101.628 E9.76020
G1 X52.855 Y100.843 E9.82153
G1 X52.744 Y99.996 E9.88315
G1 X52.866 Y99.131 E9.94614
G1 X53.180 Y98.372 E10.00545
G1 X53.698 Y97.698 E10.06677
G1 X54.372 Y97.180 E10.12809
G1 X55.157 Y96.855 E10.18941
G1 X55.972 Y96.748 E10.24872
G1 X56.839 Y96.854 E10.31171
G1 X57.628 Y97.180 E10.37333
G1 X58.302 Y97.698 E10.43465
G1 X58.725 Y98.249 E10.48476
G1 X58.765 Y97.117 E10.56651
G1 X59.066 Y94.247 E10.77468
G1 X59.567 Y91.406 E10.98285
G1 X60.265 Y88.606 E11.19101
G1 X61.157 Y85.862 E11.39918
G1 X62.238 Y83.187 E11.60735
G1 X63.502 Y80.594 E11.81552
G1 X64.945 Y78.095 E12.02369
G1 X66.558 Y75.703 E12.23185
G1 X68.335 Y73.430 E12.44002
G1 X69.574 Y72.053 E12.57371
G1 X68.887 Y72.143 E12.62371
G1 X68.045 Y72.032 E12.68504
G1 X67.259 Y71.707 E12.74637
G1 X66.585 Y71.189 E12.80768
G1 X66.068 Y70.515 E12.86900
G1 X65.742 Y69.730 E12.93033
G1 X65.631 Y68.883 E12.99194
G1 X65.753 Y68.019 E13.05494
G1 X66.068 Y67.259 E13.11425
G1 X66.585 Y66.585 E13.17556
G1 X67.259 Y66.068 E13.23688
G1 X68.045 Y65.742 E13.29821
G1 X68.860 Y65.635 E13.35752
G1 X69.726 Y65.741 E13.42051
G1 X70.515 Y66.068 E13.48213
G1 X71.189 Y66.585 E13.54345
G1 X71.707 Y67.259 E13.60476
G1 X72.032 Y68.045 E13.66609
G1 X72.144 Y68.891 E13.72771
G1 X72.055 Y69.521 E13.77361
G1 X74.551 Y67.427 E14.00872
G1 X76.842 Y65.762 E14.21303
G1 X79.331 Y64.202 E14.42501
G1 X81.879 Y62.847 E14.63322
G1 X84.515 Y61.674 E14.84138
G1 X87.226 Y60.687 E15.04955
G1 X90.000 Y59.892 E15.25772
G1 X92.822 Y59.292 E15.46589
G1 X95.679 Y58.890 E15.67406
G1 X98.232 Y58.712 E15.85867
G1 X97.695 Y58.300 E15.90751
G1 X97.170 Y57.602 E15.97050
G1 X96.855 Y56.843 E16.02981
G1 X96.744 Y56.000 E16.09113
G1 X96.855 Y55.157 E16.15245
G1 X97.180 Y54.372 E16.21378
G1 X97.698 Y53.698 E16.27510
G1 X98.372 Y53.180 E16.33642
G1 X99.157 Y52.855 E16.39775
G1 X99.972 Y52.748 E16.45705
G1 X100.839 Y52.854 E16.52005
G1 X101.628 Y53.180 E16.58166
G1 X102.305 Y53.700 E16.64328
G1 X102.830 Y54.398 E16.70627
G1 X103.145 Y55.157 E16.76557
G1 X103.256 Y56.000 E16.82689
G1 X103.145 Y56.843 E16.88822
G1 X102.820 Y57.628 E16.94954
G1 X102.302 Y58.302 E17.01086
G1 X101.768 Y58.712 E17.05942
G1 X104.321 Y58.890 E17.24402
G1 X107.178 Y59.292 E17.45219
G1 X110.000 Y59.892 E17.66036
G1 X112.774 Y60.687 E17.86853
G1 X115.485 Y61.674 E18.07670
G1 X118.121 Y62.847 E18.28486
G1 X120.668 Y64.202 E18.49304
G1 X123.115 Y65.731 E18.70120
G1 X125.449 Y67.427 E18.90937
G1 X127.697 Y69.323 E19.12156
G1 X127.901 Y69.220 E19.13801
G1 X127.857 Y68.887 E19.16222
G1 X127.968 Y68.045 E19.22354
G1 X128.293 Y67.259 E19.28487
G1 X128.811 Y66.585 E19.34619
G1 X129.485 Y66.068 E19.40751
G1 X130.270 Y65.742 E19.46884
G1 X131.085 Y65.635 E19.52814
G1 X131.952 Y65.741 E19.59113
G1 X132.741 Y66.068 E19.65275
G1 X133.415 Y66.585 E19.71407
G1 X133.932 Y67.259 E19.77539
G1 X134.258 Y68.045 E19.83672
G1 X134.369 Y68.887 E19.89804
G1 X134.258 Y69.730 E19.95936
G1 X133.932 Y70.515 E20.02069
G1 X133.415 Y71.189 E20.08201
G1 X132.741 Y71.707 E20.14333
G1 X131.955 Y72.032 E20.20466
G1 X131.113 Y72.143 E20.26598
G1 X130.426 Y72.053 E20.31598
G1 X131.665 Y73.430 E20.44967
G1 X133.442 Y75.703 E20.65784
G1 X135.055 Y78.095 E20.86600
G1 X136.498 Y80.594 E21.07421
G1 X137.783 Y83.237 E21.28620
G1 X138.843 Y85.862 E21.49050
G1 X139.735 Y88.606 E21.69867
G1 X140.433 Y91.406 E21.90684
G1 X140.934 Y94.247 E22.11501
G1 X141.235 Y97.117 E22.32317
G1 X141.275 Y98.249 E22.40492
G1 X141.698 Y97.698 E22.45504
G1 X142.372 Y97.180 E22.51636
G1 X143.157 Y96.855 E22.57768
G1 X143.972 Y96.748 E22.63698
G1 X144.839 Y96.854 E22.69998
G1 X145.628 Y97.180 E22.76159
G1 X146.302 Y97.698 E22.82291
G1 X146.820 Y98.372 E22.88423
G1 X147.145 Y99.157 E22.94556
G1 X147.256 Y100.000 E23.00688
G1 X147.145 Y100.843 E23.06821
G1 X146.820 Y101.628 E23.12953
G1 X146.302 Y102.302 E23.19086
G1 X145.628 Y102.820 E23.25217
G1 X144.843 Y103.145 E23.31350
G1 X144.000 Y103.256 E23.37482
G1 X143.157 Y103.145 E23.43614
G1 X142.398 Y102.830 E23.49545
G1 X141.700 Y102.305 E23.55844
G1 X141.275 Y101.751 E23.60885
G1 X141.235 Y102.883 E23.69060
G1 X140.934 Y105.753 E23.89876
G1 X140.433 Y108.594 E24.10693
G1 X139.735 Y111.394 E24.31510
G1 X138.843 Y114.138 E24.52327
G1 X137.762 Y116.813 E24.73143
G1 X136.498 Y119.406 E24.93961
G1 X135.055 Y121.905 E25.14777
G1 X133.442 Y124.297 E25.35594
G1 X131.665 Y126.570 E25.56411
G1 X130.426 Y127.947 E25.69779
G1 X131.085 Y127.861 E25.74578
G1 X131.952 Y127.966 E25.80877
G1 X132.741 Y128.293 E25.87040
G1 X133.415 Y128.811 E25.93171
G1 X133.932 Y129.485 E25.99303
G1 X134.258 Y130.270 E26.05436
G1 X134.369 Y131.113 E26.11568
G1 X134.258 Y131.955 E26.17700
