; generated by Slic3r 1.3.0-dev on 2018-02-12 at 17:57:21

; Print Config Notes: 
; DMF_3D_0.3mmThin222R25%
; 
; external perimeters extrusion width = 0.60mm (4.82mm^3/s)
; perimeters extrusion width = 0.54mm (5.71mm^3/s)
; infill extrusion width = 0.99mm (11.11mm^3/s)
; solid infill extrusion width = 0.51mm (5.35mm^3/s)
; top infill extrusion width = 0.51mm (5.35mm^3/s)

M190 S90 ; set bed temperature and wait for it to be reached
M104 S250 ; set temperature
G28 ; home all axes
; Filament gcode

M109 S250 ; set temperature and wait for it to be reached
G21 ; set units to millimeters
G90 ; use absolute coordinates
M82 ; use absolute distances for extrusion
G92 E0
G1 E-0.60000 F900.00000
G92 E0
G1 Z0.300 F4500.000
G1 X79.059 Y61.565 F4500.000
G1 E0.70000 F900.00000
G1 F1920
G1 X80.710 Y60.605 E0.83776
G1 X82.152 Y60.373 E0.94313
G1 X83.596 Y60.373 E1.04735
G1 X113.516 Y60.704 E3.20621
G1 X172.751 Y61.461 E7.48034
G1 X176.014 Y61.692 E7.71636
G1 X178.992 Y62.122 E7.93342
G1 X181.620 Y62.681 E8.12731
G1 X184.821 Y63.599 E8.36757
G1 X187.645 Y64.638 E8.58465
G1 X190.100 Y65.731 E8.77853
G1 X193.040 Y67.295 E9.01879
G1 X195.319 Y68.719 E9.21268
G1 X197.759 Y70.478 E9.42974
G1 X200.071 Y72.403 E9.64682
G1 X202.467 Y74.717 E9.88708
G1 X204.265 Y76.714 E10.08097
G1 X206.126 Y79.078 E10.29803
G1 X207.988 Y81.838 E10.53828
G1 X209.483 Y84.449 E10.75537
G1 X210.661 Y86.865 E10.94925
G1 X211.798 Y89.650 E11.16633
G1 X212.827 Y92.817 E11.40658
G1 X213.544 Y95.739 E11.62366
G1 X214.011 Y98.385 E11.81754
G1 X214.336 Y101.376 E12.03461
G1 X214.452 Y104.704 E12.27487
G1 X214.359 Y107.390 E12.46876
G1 X214.055 Y110.383 E12.68583
G1 X213.477 Y113.663 E12.92609
G1 X212.738 Y116.579 E13.14315
G1 X211.908 Y119.135 E13.33705
G1 X210.661 Y122.222 E13.57730
G1 X209.482 Y124.638 E13.77120
G1 X207.988 Y127.249 E13.98827
G1 X206.126 Y130.010 E14.22852
G1 X204.265 Y132.373 E14.44559
G1 X202.243 Y134.602 E14.66266
G1 X200.310 Y136.469 E14.85655
G1 X198.013 Y138.411 E15.07362
G1 X195.585 Y140.189 E15.29070
G1 X193.040 Y141.792 E15.50776
G1 X190.100 Y143.356 E15.74800
G1 X187.346 Y144.569 E15.96510
G1 X184.516 Y145.588 E16.18215
G1 X181.620 Y146.406 E16.39923
G1 X178.992 Y146.965 E16.59313
G1 X176.014 Y147.395 E16.81020
G1 X172.692 Y147.627 E17.05046
G1 X141.002 Y147.592 E19.33688
G1 X82.069 Y146.539 E23.58956
G1 X80.209 Y146.110 E23.72732
G1 X78.682 Y144.964 E23.86507
G1 X77.751 Y143.297 E24.00283
G1 X77.545 Y141.933 E24.10233
G1 X77.545 Y64.980 E29.65448
G1 X77.940 Y63.112 E29.79224
G1 X79.024 Y61.614 E29.92567
G1 X79.584 Y61.820 F4500.000
G1 F1920
G1 X81.191 Y61.024 E30.05507
G1 X82.152 Y60.909 E30.12488
G1 X83.545 Y60.909 E30.22543
G1 X113.509 Y61.239 E32.38746
G1 X172.744 Y61.996 E36.66159
G1 X175.939 Y62.223 E36.89271
G1 X178.880 Y62.646 E37.10708
G1 X181.509 Y63.205 E37.30097
G1 X184.638 Y64.102 E37.53584
G1 X187.427 Y65.128 E37.75022
G1 X189.882 Y66.221 E37.94410
G1 X192.756 Y67.749 E38.17897
G1 X195.270 Y69.332 E38.39334
G1 X197.444 Y70.911 E38.58723
G1 X199.938 Y73.004 E38.82210
G1 X202.069 Y75.075 E39.03648
G1 X203.867 Y77.072 E39.23037
G1 X205.704 Y79.407 E39.44474
G1 X207.524 Y82.106 E39.67959
G1 X209.001 Y84.684 E39.89398
G1 X210.179 Y87.099 E40.08786
G1 X211.301 Y89.851 E40.30224
G1 X212.229 Y92.674 E40.51663
G1 X213.017 Y95.832 E40.75149
G1 X213.483 Y98.478 E40.94537
G1 X213.804 Y101.432 E41.15975
G1 X213.917 Y104.686 E41.39461
G1 X213.823 Y107.371 E41.58850
G1 X213.523 Y110.327 E41.80288
G1 X212.957 Y113.533 E42.03774
G1 X212.307 Y116.140 E42.23162
G1 X211.399 Y118.969 E42.44601
G1 X210.179 Y121.988 E42.68087
G1 X209.001 Y124.403 E42.87477
G1 X207.524 Y126.981 E43.08914
G1 X205.704 Y129.680 E43.32400
G1 X204.049 Y131.797 E43.51789
G1 X202.069 Y134.012 E43.73226
G1 X199.938 Y136.083 E43.94664
G1 X197.668 Y138.001 E44.16101
G1 X195.270 Y139.755 E44.37540
G1 X192.756 Y141.338 E44.58976
G1 X189.882 Y142.866 E44.82461
G1 X187.163 Y144.066 E45.03901
G1 X184.368 Y145.073 E45.25337
G1 X181.509 Y145.882 E45.46775
G1 X178.880 Y146.441 E45.66165
G1 X175.939 Y146.864 E45.87603
G1 X172.692 Y147.091 E46.11089
G1 X141.003 Y147.056 E48.39727
G1 X82.079 Y146.004 E52.64930
G1 X80.337 Y145.577 E52.77871
G1 X78.947 Y144.444 E52.90812
G1 X78.080 Y141.933 E53.09974
G1 X78.080 Y64.980 E58.65189
G1 X78.475 Y63.230 E58.78130
G1 X79.547 Y61.868 E58.90638
G1 X80.105 Y62.097 F4500.000
G1 F1920
G1 X82.152 Y61.444 E59.06133
G1 X83.545 Y61.444 E59.16188
G1 X113.502 Y61.775 E61.32342
G1 X172.939 Y62.540 E65.61208
G1 X175.865 Y62.753 E65.82377
G1 X178.526 Y63.127 E66.01766
G1 X181.637 Y63.788 E66.24713
G1 X184.455 Y64.605 E66.45882
G1 X186.980 Y65.525 E66.65270
G1 X189.664 Y66.710 E66.86438
G1 X192.472 Y68.203 E67.09386
G1 X194.751 Y69.627 E67.28775
G1 X197.130 Y71.345 E67.49942
G1 X199.383 Y73.224 E67.71110
G1 X201.670 Y75.433 E67.94058
G1 X203.469 Y77.431 E68.13447
G1 X205.282 Y79.737 E68.34614
G1 X207.060 Y82.374 E68.57561
G1 X208.520 Y84.919 E68.78730
G1 X209.798 Y87.560 E68.99897
G1 X210.805 Y90.051 E69.19287
G1 X211.720 Y92.839 E69.40455
G1 X212.489 Y95.925 E69.63402
G1 X212.956 Y98.571 E69.82791
G1 X213.271 Y101.488 E70.03959
G1 X213.382 Y104.667 E70.26906
G1 X213.288 Y107.353 E70.46295
G1 X212.990 Y110.271 E70.67463
G1 X212.438 Y113.404 E70.90410
G1 X211.788 Y116.011 E71.09798
G1 X210.889 Y118.804 E71.30967
G1 X209.698 Y121.753 E71.53914
G1 X208.520 Y124.168 E71.73304
G1 X207.060 Y126.713 E71.94472
G1 X205.282 Y129.350 E72.17418
G1 X203.469 Y131.657 E72.38586
G1 X201.499 Y133.831 E72.59754
G1 X199.566 Y135.698 E72.79143
G1 X197.324 Y137.590 E73.00311
G1 X194.955 Y139.322 E73.21480
G1 X192.472 Y140.884 E73.42647
G1 X189.664 Y142.377 E73.65593
G1 X186.980 Y143.563 E73.86763
G1 X184.220 Y144.558 E74.07929
G1 X181.398 Y145.358 E74.29098
G1 X178.769 Y145.917 E74.48488
G1 X175.865 Y146.334 E74.69656
G1 X172.692 Y146.556 E74.92603
G1 X141.003 Y146.521 E77.21237
G1 X82.088 Y145.468 E81.46375
G1 X80.473 Y145.045 E81.58423
G1 X79.232 Y143.927 E81.70471
G1 X78.616 Y141.933 E81.85532
G1 X78.616 Y64.980 E87.40746
G1 X79.010 Y63.357 E87.52794
G1 X80.066 Y62.142 E87.64410
G1 E87.04410 F900.00000
G92 E0
G1 X121.004 Y137.704 F4500.000
G1 E0.70000 F900.00000
G1 F720
G1 X121.040 Y138.252 E0.73960
G1 X120.933 Y138.790 E0.77921
G1 X120.690 Y139.282 E0.81881
G1 X120.328 Y139.695 E0.85842
G1 X119.872 Y140.000 E0.89802
G1 X119.352 Y140.177 E0.93763
G1 X118.804 Y140.213 E0.97724
G1 X118.266 Y140.106 E1.01684
G1 X117.774 Y139.863 E1.05645
G1 X117.361 Y139.501 E1.09606
G1 X117.056 Y139.044 E1.13566
G1 X116.879 Y138.525 E1.17527
G1 X116.844 Y137.977 E1.21488
G1 X116.951 Y137.438 E1.25448
G1 X117.193 Y136.946 E1.29409
G1 X117.555 Y136.533 E1.33369
G1 X118.012 Y136.228 E1.37330
G1 X118.532 Y136.052 E1.41290
G1 X119.071 Y136.016 E1.45191
G1 X119.617 Y136.123 E1.49205
G1 X120.110 Y136.366 E1.53170
G1 X120.523 Y136.728 E1.57135
G1 X120.830 Y137.192 E1.61149
G1 X120.985 Y137.647 E1.64617
G1 X121.004 Y137.704 F4500.000
G1 E1.04617 F900.00000
G92 E0
G1 X118.299 Y140.658 F4500.000
G1 E0.70000 F900.00000
G1 F720
G1 X118.291 Y140.929 E0.71959
G1 X116.051 Y141.244 E0.88281
G1 X113.428 Y141.428 E1.07249
G1 X112.899 Y141.428 E1.11064
G1 X112.899 Y136.103 E1.49480
G1 X113.242 Y136.103 E1.51954
G1 X115.494 Y135.946 E1.68239
G1 X117.428 Y135.674 E1.82331
G1 X117.519 Y135.913 E1.84179
G1 X117.199 Y136.127 E1.86956
G1 X116.744 Y136.646 E1.91934
G1 X116.439 Y137.265 E1.96912
G1 X116.304 Y137.941 E2.01890
G1 X116.350 Y138.630 E2.06869
G1 X116.571 Y139.283 E2.11847
G1 X116.955 Y139.857 E2.16825
G1 X117.473 Y140.312 E2.21802
G1 X118.092 Y140.617 E2.26782
G1 X118.240 Y140.646 E2.27866
G1 X120.614 Y140.462 F4500.000
G1 F720
G1 X120.511 Y140.217 E2.29782
G1 X120.684 Y140.101 E2.31285
G1 X121.139 Y139.583 E2.36263
G1 X121.445 Y138.964 E2.41242
G1 X121.579 Y138.287 E2.46220
G1 X121.534 Y137.599 E2.51197
G1 X121.315 Y136.954 E2.56107
G1 X120.930 Y136.373 E2.61139
G1 X120.410 Y135.917 E2.66130
G1 X119.790 Y135.611 E2.71120
G1 X119.411 Y135.537 E2.73904
G1 X119.409 Y135.274 E2.75798
G1 X119.936 Y135.162 E2.79689
G1 X122.106 Y134.540 E2.95973
G1 X124.227 Y133.768 E3.12258
G1 X126.289 Y132.850 E3.28542
G1 X128.282 Y131.791 E3.44826
G1 X129.232 Y131.197 E3.52909
G1 X129.412 Y131.383 E3.54782
G1 X129.188 Y131.719 E3.57695
G1 X128.969 Y132.364 E3.62606
G1 X128.921 Y133.059 E3.67638
G1 X129.056 Y133.738 E3.72628
G1 X129.361 Y134.357 E3.77606
G1 X129.816 Y134.875 E3.82585
G1 X130.390 Y135.259 E3.87564
G1 X131.043 Y135.480 E3.92541
G1 X131.731 Y135.526 E3.97519
G1 X131.913 Y135.490 E3.98853
G1 X132.012 Y135.739 E4.00786
G1 X130.946 Y136.405 E4.09855
G1 X128.624 Y137.639 E4.28822
G1 X126.223 Y138.708 E4.47786
G1 X123.711 Y139.619 E4.67069
G1 X121.225 Y140.332 E4.85724
G1 X120.673 Y140.449 E4.89798
G1 E4.29798 F900.00000
G92 E0
G1 X129.810 Y134.056 F4500.000
G1 E0.70000 F900.00000
G1 F720
G1 X129.567 Y133.564 E0.73961
G1 X129.460 Y133.025 E0.77925
G1 X129.499 Y132.470 E0.81940
G1 X129.673 Y131.958 E0.85841
G1 X129.978 Y131.502 E0.89801
G1 X130.390 Y131.140 E0.93762
G1 X130.883 Y130.897 E0.97722
G1 X131.413 Y130.792 E1.01623
G1 X131.968 Y130.826 E1.05637
G1 X132.489 Y131.002 E1.09603
G1 X132.945 Y131.307 E1.13563
G1 X133.307 Y131.720 E1.17524
G1 X133.550 Y132.212 E1.21484
G1 X133.657 Y132.751 E1.25445
G1 X133.621 Y133.298 E1.29405
G1 X133.445 Y133.818 E1.33365
G1 X133.140 Y134.275 E1.37326
G1 X132.727 Y134.637 E1.41287
G1 X132.235 Y134.879 E1.45247
G1 X131.696 Y134.987 E1.49208
G1 X131.148 Y134.951 E1.53168
G1 X130.629 Y134.774 E1.57128
G1 X130.172 Y134.469 E1.61089
G1 X129.850 Y134.102 E1.64617
G1 X129.810 Y134.056 F4500.000
G1 X130.990 Y130.330 F4500.000
G1 F720
G1 X130.887 Y130.093 E1.66482
G1 X132.022 Y129.268 E1.76606
G1 X133.751 Y127.817 E1.92890
G1 X135.374 Y126.249 E2.09175
G1 X136.885 Y124.572 E2.25459
G1 X138.274 Y122.793 E2.41743
G1 X138.407 Y122.597 E2.43452
G1 X138.649 Y122.698 E2.45351
G1 X138.578 Y123.059 E2.48003
G1 X138.623 Y123.747 E2.52982
G1 X138.845 Y124.401 E2.57960
G1 X139.228 Y124.974 E2.62938
G1 X139.747 Y125.429 E2.67916
G1 X140.366 Y125.734 E2.72894
G1 X141.042 Y125.869 E2.77872
G1 X141.731 Y125.824 E2.82850
G1 X142.384 Y125.602 E2.87828
G1 X142.576 Y125.474 E2.89491
G1 X142.762 Y125.661 E2.91398
G1 X142.584 Y125.925 E2.93692
G1 X140.966 Y127.997 E3.12660
G1 X139.207 Y129.950 E3.31627
G1 X137.316 Y131.777 E3.50595
G1 X135.302 Y133.466 E3.69562
G1 X134.020 Y134.397 E3.80992
G1 X133.826 Y134.211 E3.82933
G1 X133.929 Y134.057 E3.84267
G1 X134.151 Y133.404 E3.89245
G1 X134.196 Y132.715 E3.94224
G1 X134.061 Y132.039 E3.99201
G1 X133.756 Y131.420 E4.04179
G1 X133.301 Y130.901 E4.09158
G1 X132.728 Y130.518 E4.14135
G1 X132.073 Y130.295 E4.19126
G1 X131.376 Y130.253 E4.24159
G1 X131.049 Y130.318 E4.26567
G1 E3.66567 F900.00000
G92 E0
G1 X139.604 Y124.573 F4500.000
G1 E0.70000 F900.00000
G1 F720
G1 X139.329 Y124.162 E0.73569
G1 X139.153 Y123.642 E0.77530
G1 X139.117 Y123.094 E0.81491
G1 X139.224 Y122.556 E0.85452
G1 X139.467 Y122.063 E0.89412
G1 X139.829 Y121.651 E0.93373
G1 X140.285 Y121.346 E0.97333
G1 X140.805 Y121.169 E1.01294
G1 X141.344 Y121.134 E1.05195
G1 X141.890 Y121.240 E1.09209
G1 X142.383 Y121.483 E1.13174
G1 X142.796 Y121.845 E1.17135
G1 X143.101 Y122.302 E1.21096
G1 X143.277 Y122.822 E1.25056
G1 X143.313 Y123.370 E1.29021
G1 X143.203 Y123.915 E1.33035
G1 X142.963 Y124.400 E1.36936
G1 X142.602 Y124.813 E1.40896
G1 X142.145 Y125.118 E1.44857
G1 X141.625 Y125.294 E1.48818
G1 X141.078 Y125.330 E1.52778
G1 X140.539 Y125.223 E1.56738
G1 X140.047 Y124.980 E1.60699
G1 X139.639 Y124.622 E1.64617
G1 X139.211 Y124.649 F4500.000
G1 X139.554 Y120.891 F4500.000
G1 F720
G1 X140.665 Y118.968 E1.80642
G1 X141.654 Y116.939 E1.96927
G1 X142.500 Y114.846 E2.13212
G1 X143.197 Y112.700 E2.29496
G1 X143.604 Y111.069 E2.41621
G1 X143.861 Y111.075 E2.43478
G1 X143.938 Y111.465 E2.46341
G1 X144.244 Y112.083 E2.51319
G1 X144.698 Y112.602 E2.56297
G1 X145.272 Y112.985 E2.61275
G1 X145.926 Y113.207 E2.66253
G1 X146.614 Y113.252 E2.71231
G1 X147.291 Y113.118 E2.76209
G1 X147.910 Y112.813 E2.81188
G1 X148.428 Y112.358 E2.86165
G1 X148.532 Y112.202 E2.87517
G1 X148.779 Y112.311 E2.89466
G1 X148.318 Y114.169 E3.03276
G1 X147.506 Y116.669 E3.22240
G1 X146.521 Y119.106 E3.41208
G1 X145.388 Y121.430 E3.59862
G1 X144.062 Y123.733 E3.79038
G1 X143.806 Y123.636 E3.81010
G1 X143.853 Y123.406 E3.82704
G1 X143.807 Y122.716 E3.87694
G1 X143.586 Y122.063 E3.92671
G1 X143.202 Y121.489 E3.97650
G1 X142.684 Y121.034 E4.02629
G1 X142.063 Y120.728 E4.07620
G1 X141.379 Y120.595 E4.12650
G1 X140.699 Y120.639 E4.17561
G1 X140.046 Y120.861 E4.22540
G1 X139.740 Y121.066 E4.25192
G1 X139.598 Y120.932 E4.26599
G1 E3.66599 F900.00000
G92 E0
G1 X145.268 Y112.339 F4500.000
G1 E0.70000 F900.00000
G1 F720
G1 X145.055 Y112.196 E0.71853
G1 X144.693 Y111.783 E0.75813
G1 X144.450 Y111.291 E0.79774
G1 X144.343 Y110.752 E0.83735
G1 X144.379 Y110.205 E0.87695
G1 X144.555 Y109.685 E0.91655
G1 X144.860 Y109.228 E0.95616
G1 X145.273 Y108.867 E0.99577
G1 X145.765 Y108.624 E1.03537
G1 X146.295 Y108.518 E1.07438
G1 X146.851 Y108.552 E1.11452
G1 X147.371 Y108.729 E1.15417
G1 X147.828 Y109.034 E1.19378
G1 X148.190 Y109.447 E1.23338
G1 X148.432 Y109.939 E1.27299
G1 X148.539 Y110.477 E1.31260
G1 X148.504 Y111.025 E1.35220
G1 X148.327 Y111.545 E1.39181
G1 X148.022 Y112.001 E1.43141
G1 X147.609 Y112.363 E1.47102
G1 X147.117 Y112.606 E1.51063
G1 X146.579 Y112.713 E1.55023
G1 X146.031 Y112.677 E1.58983
G1 X145.511 Y112.501 E1.62944
G1 X145.318 Y112.372 E1.64619
G1 X145.045 Y112.465 F4500.000
G1 X144.233 Y109.204 F4500.000
G1 F720
G1 X143.991 Y109.106 E1.66501
G1 X144.135 Y108.287 E1.72503
G1 X144.371 Y106.042 E1.88788
G1 X144.450 Y103.787 E2.05072
G1 X144.371 Y101.531 E2.21357
G1 X144.135 Y99.286 E2.37641
G1 X143.991 Y98.467 E2.43643
G1 X144.233 Y98.370 E2.45525
G1 X144.454 Y98.701 E2.48400
G1 X144.973 Y99.156 E2.53378
G1 X145.592 Y99.461 E2.58356
G1 X146.270 Y99.596 E2.63347
G1 X146.966 Y99.548 E2.68379
G1 X147.610 Y99.329 E2.73289
G1 X148.184 Y98.946 E2.78266
G1 X148.639 Y98.427 E2.83244
G1 X148.940 Y97.817 E2.88155
G1 X148.981 Y97.613 E2.89654
G1 X149.247 Y97.617 E2.91574
G1 X149.411 Y98.545 E2.98376
G1 X149.686 Y101.159 E3.17344
G1 X149.778 Y103.787 E3.36311
G1 X149.686 Y106.414 E3.55279
G1 X149.411 Y109.029 E3.74246
G1 X149.248 Y109.952 E3.81008
G1 X148.982 Y109.954 E3.82932
G1 X148.944 Y109.765 E3.84322
G1 X148.639 Y109.146 E3.89302
G1 X148.184 Y108.628 E3.94279
G1 X147.610 Y108.244 E3.99257
G1 X146.955 Y108.022 E4.04248
G1 X146.259 Y107.979 E4.09280
G1 X145.592 Y108.112 E4.14190
G1 X144.973 Y108.417 E4.19168
G1 X144.454 Y108.872 E4.24146
G1 X144.266 Y109.154 E4.26588
G1 E3.66588 F900.00000
G92 E0
G1 X146.253 Y99.047 F4500.000
G1 E0.70000 F900.00000
G1 F720
G1 X145.765 Y98.950 E0.73589
G1 X145.273 Y98.707 E0.77549
G1 X144.860 Y98.345 E0.81510
G1 X144.555 Y97.889 E0.85471
G1 X144.379 Y97.369 E0.89431
G1 X144.343 Y96.821 E0.93391
G1 X144.450 Y96.283 E0.97352
G1 X144.693 Y95.790 E1.01313
G1 X145.055 Y95.378 E1.05273
G1 X145.511 Y95.073 E1.09234
G1 X146.031 Y94.896 E1.13195
G1 X146.570 Y94.861 E1.17095
G1 X147.116 Y94.967 E1.21109
G1 X147.609 Y95.210 E1.25074
G1 X148.022 Y95.572 E1.29035
G1 X148.327 Y96.029 E1.32995
G1 X148.504 Y96.548 E1.36956
G1 X148.539 Y97.097 E1.40921
G1 X148.429 Y97.642 E1.44935
G1 X148.190 Y98.127 E1.48836
G1 X147.828 Y98.540 E1.52797
G1 X147.371 Y98.845 E1.56757
G1 X146.859 Y99.018 E1.60658
G1 X146.312 Y99.056 E1.64615
G1 X146.029 Y99.378 F4500.000
G1 X143.603 Y96.508 F4500.000
G1 F720
G1 X143.197 Y94.874 E1.76763
G1 X142.500 Y92.727 E1.93050
G1 X141.654 Y90.634 E2.09335
G1 X140.665 Y88.606 E2.25620
G1 X139.554 Y86.682 E2.41645
G1 X139.740 Y86.508 E2.43485
G1 X140.046 Y86.712 E2.46137
G1 X140.699 Y86.934 E2.51116
G1 X141.388 Y86.979 E2.56095
G1 X142.065 Y86.845 E2.61072
G1 X142.684 Y86.539 E2.66050
G1 X143.202 Y86.084 E2.71029
G1 X143.586 Y85.511 E2.76007
G1 X143.807 Y84.857 E2.80985
G1 X143.852 Y84.169 E2.85962
G1 X143.806 Y83.936 E2.87676
G1 X144.061 Y83.840 E2.89643
G1 X145.369 Y86.105 E3.08511
G1 X146.521 Y88.467 E3.27478
G1 X147.490 Y90.865 E3.46133
G1 X148.319 Y93.406 E3.65416
G1 X148.783 Y95.267 E3.79259
